!!!!SEGMENT: pl-wtm--r-1723--002_stefani-jozef--noc-i-poranek-w-obozie-adagio-andante.krn
!!!cenid: 18xx:2328
!!!COM: Stefani, Józef
!!!COM-rismID: pe30024097
!!!CDT: 1800/04/16-1876/03/19
!!!CNT: Polish
!!!OPR: Noc i poranek w obozie
!!!OTL: Adagio-Andante
!!!OMV: 002
!!!PDT:
!!!AGN: Secular
!!!SMS-siglum: PL-Wtm
!!!SMS-shelfmark: R 1723
!!!SMS-shelfwork: 001-002 M
!!!SMS-variant:
!!!SMS-altvar:
!!!NIFC-rismSourceID: 1001128950
!!!NIFC-rismChildID: 1001128950
!!!NIFC-islandoraID: pl-wtm:28378
!!!URL-pdf-islandora: https://repozytorium.nifc.pl/islandora/object/pl-wtm%3A28378/datastream/PDF/view
!!!URL-scan: https://polish.musicsources.pl/pl/lokalizacje/galeria/rekopisy/6460 @EN{Scan on Polish Music Sources Website} @PL{Skany w portalu Dziedzictwo Muzyki Polskiej w otwartym dostępie}
!!!IIIF:
!!!ONB-nifc: UWAGA: skany 0005-0009 (nast. cz. Allegretto)
!!!OMD: Adagio
!!!AIN: 1 bdrum 1 cbass 1 cello 1 clars 1 cor 1 drumP 4 empty 1 fagot 1 flt 1 oboe 1 picco 1 timpa 1 trngl 2 tromp 1 viola
!!!key:
**kern	**kern	**dynam	**kern	**dynam	**kern	**dynam	**kern	**kern	**dynam	**kern	**kern	**dynam	**kern	**dynam	**kern	**kern	**dynam	**kern	**dynam	**kern	**kern	**dynam	**kern	**dynam	**kern	**dynam	**kern	**dynam	**kern	**kern	**dynam
*	*	*	*	*	*	*	*group2	*group2	*	*	*	*	*	*	*group1	*group1	*	*	*	*	*	*	*	*	*	*	*	*	*	*	*
*	*	*	*	*	*	*	*I""[Violini]	*I""[Violini]	*	*	*	*	*	*	*I""[Tromboni]	*I""[Tromboni]	*	*	*	*	*	*	*	*	*	*	*	*	*	*	*
*part19	*part18	*part18	*part17	*part17	*part16	*part16	*part15	*part14	*part14	*part13	*part12	*part12	*part11	*part11	*part10	*part9	*part9	*part8	*part8	*part7	*part6	*part6	*part5	*part5	*part4	*part4	*part3	*part3	*part2	*part1	*part1
*staff19	*staff18	*	*staff17	*	*staff16	*	*staff15	*staff14	*	*staff13	*staff12	*	*staff11	*	*staff10	*staff9	*	*staff8	*	*staff7	*staff6	*	*staff5	*	*staff4	*	*staff3	*	*staff2	*staff1	*
*IdrumP	*Icbass	*	*Icello	*	*Iviola	*	*Iempty	*Iempty	*	*Ibdrum	*Itrngl	*	*Itimpa	*	*Iempty	*Iempty	*	*Itromp	*	*Itromp	*Ifagot	*	*Icor	*	*Iclars	*	*Ioboe	*	*Ipicco	*Iflt	*
*I"[P. Tambour]	*I"[C: Baſsi]	*	*I"[Violoncelli]	*	*I"[Viole]	*	*	*	*	*I"[G. Caſsa]	*I"[Triangolo]	*	*I"[in C. G. Timpani]	*	*	*	*	*I"[in C Trombe tutti]	*	*I"[solo Tromba in C]	*I"[Fagoto]	*	*I"[in C Corni]	*	*I"[in C Clarinetti]	*	*I"[Oboe]	*	*I"[F. Picolo]	*I"[Flauto]	*
*stria1	*	*	*	*	*	*	*	*	*	*	*	*	*	*	*	*	*	*	*	*	*	*	*	*	*	*	*	*	*	*	*
*clefF4	*clefF4	*	*clefF4	*	*clefC3	*	*clefG2	*clefG2	*	*clefF4	*clefG2	*	*clefF4	*	*clefF4	*clefC4	*	*clefG2	*	*clefG2	*clefF4	*	*clefG2	*	*clefG2	*	*clefG2	*	*clefG2	*clefG2	*
*	*Trd0c0	*	*	*	*	*	*	*	*	*	*	*	*	*	*	*	*	*	*	*	*	*	*Trd0c0	*	*	*	*	*	*Trd0c0	*	*
*k[]	*k[]	*	*k[]	*	*k[]	*	*k[]	*k[]	*	*k[]	*k[]	*	*k[]	*	*k[]	*k[]	*	*k[]	*	*k[]	*k[]	*	*k[]	*	*k[]	*	*k[]	*	*k[]	*k[]	*
*G:	*G:	*	*G:	*	*G:	*	*G:	*G:	*	*G:	*G:	*	*G:	*	*G:	*G:	*	*G:	*	*G:	*G:	*	*G:	*	*G:	*	*G:	*	*G:	*G:	*
*M4/4	*M4/4	*	*M4/4	*	*M4/4	*	*M4/4	*M4/4	*	*M4/4	*M4/4	*	*M4/4	*	*M4/4	*M4/4	*	*M4/4	*	*M4/4	*M4/4	*	*M4/4	*	*M4/4	*	*M4/4	*	*M4/4	*M4/4	*
*met(c)	*met(c)	*	*met(c)	*	*met(c)	*	*met(c)	*met(c)	*	*met(c)	*met(c)	*	*met(c)	*	*met(c)	*met(c)	*	*met(c)	*	*met(c)	*met(c)	*	*met(c)	*	*met(c)	*	*met(c)	*	*met(c)	*met(c)	*
*all\right	*all\right	*	*all\right	*	*all\right	*	*all\right	*all\right	*	*all\right	*all\right	*	*all\right	*	*all\right	*all\right	*	*all\right	*	*all\right	*all\right	*	*all\right	*	*all\right	*	*all\right	*	*all\right	*all\right	*
=1	=1	=1	=1	=1	=1	=1	=1	=1	=1	=1	=1	=1	=1	=1	=1	=1	=1	=1	=1	=1	=1	=1	=1	=1	=1	=1	=1	=1	=1	=1	=1
!	!	!	!	!	!	!	!	!	!	!	!	!	!	!	!	!	!	!	!	!	!	!LO:DY:rj	!	!	!	!LO:DY:a:rj	!	!	!	!	!
1ryy	1r	.	1r	.	1r	.	1r	1r	.	1r	1r	.	1r	.	1r	1r	.	1r	.	1r	1A-X	p	1r	.	(>2c/ 2e-X	p	1ryy	.	1r	1r	.
.	.	.	.	.	.	.	.	.	.	.	.	.	.	.	.	.	.	.	.	.	.	.	.	.	4d-X/ 4f	.	.	.	.	.	.
.	.	.	.	.	.	.	.	.	.	.	.	.	.	.	.	.	.	.	.	.	.	.	.	.	4B/) 4dn	.	.	.	.	.	.
=2	=2	=2	=2	=2	=2	=2	=2	=2	=2	=2	=2	=2	=2	=2	=2	=2	=2	=2	=2	=2	=2	=2	=2	=2	=2	=2	=2	=2	=2	=2	=2
*	*	*	*	*	*	*	*	*	*	*	*	*	*	*	*	*	*	*	*	*	*	*	*^	*	*	*	*	*	*	*	*
*	*	*	*	*	*	*	*	*	*	*	*	*	*	*	*	*	*	*	*	*	*2\right	*	*	*	*	*	*	*	*	*	*	*
1ryy	1ryy	.	1ryy	.	1ryy	.	1ryy	1ryy	.	1ryy	1ryy	.	1ryy	.	1ryy	1ryy	.	1r	.	1r	2A-X\	.	2r	1re	.	(>2c/ 2e-X	.	1ryy	.	1ryy	1ryy	.
.	.	.	.	.	.	.	.	.	.	.	.	.	.	.	.	.	.	.	.	.	4AA-X/	.	4r	.	.	4A-X/) 4c	.	.	.	.	.	.
.	.	.	.	.	.	.	.	.	.	.	.	.	.	.	.	.	.	.	.	.	4C/	.	4cc\	.	.	(<4A-'>/ 4c	.	.	.	.	.	.
=3	=3	=3	=3	=3	=3	=3	=3	=3	=3	=3	=3	=3	=3	=3	=3	=3	=3	=3	=3	=3	=3	=3	=3	=3	=3	=3	=3	=3	=3	=3	=3	=3
*	*	*	*	*	*	*	*	*	*	*	*	*	*	*	*	*	*	*	*	*	*	*	*	*	*	*^	*	*	*	*	*	*
*	*	*	*	*	*	*	*	*	*	*	*	*	*	*	*	*	*	*	*	*	*	*	*2\right	*	*	*	*	*	*	*	*	*	*
1ryy	1ryy	.	1ryy	.	1ryy	.	1ryy	1ryy	.	1ryy	1ryy	.	1ryy	.	1ryy	1ryy	.	1r	.	1r	1E-X	.	2.dd-X\	1r	.	1B	4A-X\	.	1ryy	.	1ryy	1ryy	.
.	.	.	.	.	.	.	.	.	.	.	.	.	.	.	.	.	.	.	.	.	.	.	.	.	.	.	8G\L)	.	.	.	.	.	.
.	.	.	.	.	.	.	.	.	.	.	.	.	.	.	.	.	.	.	.	.	.	.	.	.	.	.	8F\J	.	.	.	.	.	.
*	*	*	*	*	*	*	*	*	*	*	*	*	*	*	*	*	*	*	*	*	*	*	*	*	*	*	*2\right	*	*	*	*	*	*
.	.	.	.	.	.	.	.	.	.	.	.	.	.	.	.	.	.	.	.	.	.	.	.	.	.	.	2G\	.	.	.	.	.	.
.	.	.	.	.	.	.	.	.	.	.	.	.	.	.	.	.	.	.	.	.	.	.	4ee-X\	.	.	.	.	.	.	.	.	.	.
=4	=4	=4	=4	=4	=4	=4	=4	=4	=4	=4	=4	=4	=4	=4	=4	=4	=4	=4	=4	=4	=4	=4	=4	=4	=4	=4	=4	=4	=4	=4	=4	=4	=4
1ryy	1ryy	.	1ryy	.	1ryy	.	1ryy	1ryy	.	1ryy	1ryy	.	1ryy	.	1ryy	1ryy	.	1r	.	1r	1AA-X	.	2cc\	1r	.	[>2c/	1A-X	.	1ryy	.	1ryy	1ryy	.
.	.	.	.	.	.	.	.	.	.	.	.	.	.	.	.	.	.	.	.	.	.	.	2cc\	.	.	(>8c/L]	.	.	.	.	.	.	.
.	.	.	.	.	.	.	.	.	.	.	.	.	.	.	.	.	.	.	.	.	.	.	.	.	.	8d/	.	.	.	.	.	.	.
.	.	.	.	.	.	.	.	.	.	.	.	.	.	.	.	.	.	.	.	.	.	.	.	.	.	8e-X/	.	.	.	.	.	.	.
.	.	.	.	.	.	.	.	.	.	.	.	.	.	.	.	.	.	.	.	.	.	.	.	.	.	8f/J)	.	.	.	.	.	.	.
*	*	*	*	*	*	*	*	*	*	*	*	*	*	*	*	*	*	*	*	*	*	*	*v	*v	*	*	*	*	*	*	*	*	*
*	*	*	*	*	*	*	*	*	*	*	*	*	*	*	*	*	*	*	*	*	*	*	*	*	*v	*v	*	*	*	*	*	*
!!LO:PB:g=original
=5||	=5||	=5||	=5||	=5||	=5||	=5||	=5||	=5||	=5||	=5||	=5||	=5||	=5||	=5||	=5||	=5||	=5||	=5||	=5||	=5||	=5||	=5||	=5||	=5||	=5||	=5||	=5||	=5||	=5||	=5||	=5||
*M4/4	*M4/4	*	*M4/4	*	*M4/4	*	*M4/4	*M4/4	*	*M4/4	*M4/4	*	*M4/4	*	*M4/4	*M4/4	*	*M4/4	*	*M4/4	*M4/4	*	*M4/4	*	*M4/4	*	*M4/4	*	*M4/4	*M4/4	*
*met(c)	*met(c)	*	*met(c)	*	*met(c)	*	*met(c)	*met(c)	*	*met(c)	*met(c)	*	*met(c)	*	*met(c)	*met(c)	*	*met(c)	*	*met(c)	*met(c)	*	*met(c)	*	*met(c)	*	*met(c)	*	*met(c)	*met(c)	*
*	*	*	*	*	*	*	*	*	*	*	*	*	*	*	*	*	*	*	*	*	*	*	*^	*	*	*	*	*	*	*	*
!	!	!	!	!	!	!	!	!	!	!	!	!	!	!	!	!	!	!	!	!	!	!	!	!	!	!	!	!	!	!	!LO:TX:a:Bi:t=Andante.	!
1ryy	1r	.	1r	.	1r	.	2r	2r	.	1r	1r	.	1r	.	1r	1r	.	1r	.	1r	4GG/	.	4b/	4r	.	4G/ 4g	.	1r	.	1r	1r	.
!	!	!	!	!	!	!	!	!	!	!	!	!	!	!	!	!	!	!	!	!	!	!	!	!	!LO:DY:a	!	!	!	!	!	!	!
.	.	.	.	.	.	.	.	.	.	.	.	.	.	.	.	.	.	.	.	.	4r	.	4G/ 4g	4ryy	mf	4r	.	.	.	.	.	.
!	!	!	!	!	!	!	!	!	!	!	!	!	!	!	!	!	!	!	!	!	!	!	!	!	!LO:DY:a:rj	!	!	!	!	!	!	!
.	.	.	.	.	.	.	4r	4r	.	.	.	.	.	.	.	.	.	.	.	.	2r	.	[<2G/ [>2g	2ryy	p	2r	.	.	.	.	.	.
.	.	.	.	.	.	.	(<4c/	(<4e/	.	.	.	.	.	.	.	.	.	.	.	.	.	.	.	.	.	.	.	.	.	.	.	.
*	*	*	*	*	*	*	*	*	*	*	*	*	*	*	*	*	*	*	*	*	*	*	*v	*v	*	*	*	*	*	*	*	*
=6	=6	=6	=6	=6	=6	=6	=6	=6	=6	=6	=6	=6	=6	=6	=6	=6	=6	=6	=6	=6	=6	=6	=6	=6	=6	=6	=6	=6	=6	=6	=6
1ryy	1ryy	.	1ryy	.	1ryy	.	8d/)	8f/)	.	1ryy	1ryy	.	1ryy	.	1ryy	1ryy	.	1ryy	.	1ryy	1r	.	1G] 1g]	.	1r	.	1r	.	1r	1r	.
.	.	.	.	.	.	.	8r	8r	.	.	.	.	.	.	.	.	.	.	.	.	.	.	.	.	.	.	.	.	.	.	.
.	.	.	.	.	.	.	(<4B/	(<4d/	.	.	.	.	.	.	.	.	.	.	.	.	.	.	.	.	.	.	.	.	.	.	.
.	.	.	.	.	.	.	8c/)	8e/)	.	.	.	.	.	.	.	.	.	.	.	.	.	.	.	.	.	.	.	.	.	.	.
.	.	.	.	.	.	.	8r	8r	.	.	.	.	.	.	.	.	.	.	.	.	.	.	.	.	.	.	.	.	.	.	.
.	.	.	.	.	.	.	4A/	4c/	.	.	.	.	.	.	.	.	.	.	.	.	.	.	.	.	.	.	.	.	.	.	.
=7	=7	=7	=7	=7	=7	=7	=7	=7	=7	=7	=7	=7	=7	=7	=7	=7	=7	=7	=7	=7	=7	=7	=7	=7	=7	=7	=7	=7	=7	=7	=7
1ryy	1ryy	.	1ryy	.	1ryy	.	4B/	4d/	.	1ryy	1ryy	.	1ryy	.	1ryy	1ryy	.	1ryy	.	1ryy	1r	.	4G/ 4g	.	1r	.	1r	.	1r	1r	.
!	!	!	!	!	!	!	!	!	!	!	!	!	!	!	!	!	!	!	!	!	!	!	!	!LO:DY:a	!	!	!	!	!	!	!
.	.	.	.	.	.	.	4r	4r	.	.	.	.	.	.	.	.	.	.	.	.	.	.	4G/ 4g	f	.	.	.	.	.	.	.
!	!	!	!	!	!	!	!	!	!	!	!	!	!	!	!	!	!	!	!	!	!	!	!	!LO:DY:a:rj	!	!	!	!	!	!	!
.	.	.	.	.	.	.	4r	4r	.	.	.	.	.	.	.	.	.	.	.	.	.	.	[<2G/ [>2g	p	.	.	.	.	.	.	.
.	.	.	.	.	.	.	8.c/L	8.e/L	.	.	.	.	.	.	.	.	.	.	.	.	.	.	.	.	.	.	.	.	.	.	.
.	.	.	.	.	.	.	16e/Jk	16g/Jk	.	.	.	.	.	.	.	.	.	.	.	.	.	.	.	.	.	.	.	.	.	.	.
=8	=8	=8	=8	=8	=8	=8	=8	=8	=8	=8	=8	=8	=8	=8	=8	=8	=8	=8	=8	=8	=8	=8	=8	=8	=8	=8	=8	=8	=8	=8	=8
1ryy	1ryy	.	1ryy	.	1ryy	.	8d/	8f/	.	1ryy	1ryy	.	1ryy	.	1ryy	1ryy	.	1ryy	.	1ryy	1r	.	1G] 1g]	.	1r	.	1r	.	1r	1r	.
.	.	.	.	.	.	.	8r	8r	.	.	.	.	.	.	.	.	.	.	.	.	.	.	.	.	.	.	.	.	.	.	.
.	.	.	.	.	.	.	8.B/L	8.d/L	.	.	.	.	.	.	.	.	.	.	.	.	.	.	.	.	.	.	.	.	.	.	.
.	.	.	.	.	.	.	16d/Jk	16f/Jk	.	.	.	.	.	.	.	.	.	.	.	.	.	.	.	.	.	.	.	.	.	.	.
.	.	.	.	.	.	.	8c/	8e/	.	.	.	.	.	.	.	.	.	.	.	.	.	.	.	.	.	.	.	.	.	.	.
.	.	.	.	.	.	.	8r	8r	.	.	.	.	.	.	.	.	.	.	.	.	.	.	.	.	.	.	.	.	.	.	.
.	.	.	.	.	.	.	8.A/L	8.c/L	.	.	.	.	.	.	.	.	.	.	.	.	.	.	.	.	.	.	.	.	.	.	.
.	.	.	.	.	.	.	16c/Jk	16e/Jk	.	.	.	.	.	.	.	.	.	.	.	.	.	.	.	.	.	.	.	.	.	.	.
!!LO:PB:g=original
=9	=9	=9	=9	=9	=9	=9	=9	=9	=9	=9	=9	=9	=9	=9	=9	=9	=9	=9	=9	=9	=9	=9	=9	=9	=9	=9	=9	=9	=9	=9	=9
*	*	*	*clefC4	*	*	*	*	*	*	*	*	*	*	*	*	*	*	*	*	*	*	*	*	*	*	*	*	*	*	*	*
*	*	*	*tremolo	*	*tremolo	*	*	*	*	*	*	*	*	*	*	*	*	*	*	*	*	*	*	*	*	*	*	*	*	*	*
!	!	!	!	!LO:DY:rj	!	!LO:DY:rj	!	!	!	!	!	!	!	!	!	!	!	!	!	!	!	!	!	!	!	!	!	!	!	!	!
1ryy	1r	.	16g\LL	p	16g\LL	p	16d/LL	16d/LL	.	1r	1r	.	1r	.	1r	1r	.	1r	.	1r	1r	.	4G/ 4g	.	1r	.	16dd'\LL	.	4r	16ddd'\LL	.
.	.	.	16g\	.	16g\	.	16b/	16dd/	.	.	.	.	.	.	.	.	.	.	.	.	.	.	.	.	.	.	16dd'\	.	.	16ddd'\	.
.	.	.	16g\	.	16g\	.	16b/	16dd/	.	.	.	.	.	.	.	.	.	.	.	.	.	.	.	.	.	.	16dd'\	.	.	16ddd'\	.
.	.	.	16g\JJ	.	16g\JJ	.	16b/JJ	16dd/JJ	.	.	.	.	.	.	.	.	.	.	.	.	.	.	.	.	.	.	16dd'\JJ	.	.	16ddd'\JJ	.
.	.	.	.	.	.	.	.	.	.	.	.	.	.	.	.	.	.	.	.	.	.	.	.	.	.	.	(<32qqdd/LLL	.	(<32qqdd/LLL	(>(<32qqddd/LLL	.
.	.	.	.	.	.	.	.	.	.	.	.	.	.	.	.	.	.	.	.	.	.	.	.	.	.	.	32qqff#X/JJJ	.	32qqff#X/JJJ	32qqfff#X/JJJ	.
*	*	*	*tremolo	*	*	*	*tremolo	*tremolo	*	*	*	*	*	*	*	*	*	*	*	*	*	*	*	*	*	*	*	*	*	*	*
.	.	.	16f#X\LL	.	16f#X\LL	.	16a/LL	16dd\LL	.	.	.	.	.	.	.	.	.	.	.	.	.	.	4r	.	.	.	16aa\LL)	.	8aa\)	16aaa\LL))	.
.	.	.	16f#\	.	16f#\	.	16a/	16dd\	.	.	.	.	.	.	.	.	.	.	.	.	.	.	.	.	.	.	16dd\	.	.	16ddd'\	.
.	.	.	16f#\	.	16f#\	.	16a/	16dd\	.	.	.	.	.	.	.	.	.	.	.	.	.	.	.	.	.	.	16dd\	.	8r	16ddd'\	.
.	.	.	16f#\JJ	.	16f#\JJ	.	16a/JJ	16dd\JJ	.	.	.	.	.	.	.	.	.	.	.	.	.	.	.	.	.	.	16dd\JJ	.	.	16ddd'\JJ	.
*	*	*	*2\right	*	*2\right	*	*	*	*	*	*	*	*	*	*	*	*	*	*	*	*	*	*	*	*	*	*tremolo	*	*	*tremolo	*
!	!	!	!	!	!	!	!	!	!	!	!	!	!	!	!	!	!	!	!	!	!	!	!	!	!	!	!	!	!	!LO:TX:t=P:....:problem	!
.	.	.	16e\LL	.	16e\LL	.	16g/LL	16cc\LL	.	.	.	.	.	.	.	.	.	.	.	.	.	.	2r	.	.	.	16cc\LL	.	4r	(>16aa'\LL 16ccc	.
.	.	.	16e\	.	16e\	.	16g/	16cc\	.	.	.	.	.	.	.	.	.	.	.	.	.	.	.	.	.	.	16cc\	.	.	16aa'\ 16ccc	.
.	.	.	16e\	.	16e\	.	16g/	16cc\	.	.	.	.	.	.	.	.	.	.	.	.	.	.	.	.	.	.	16cc\	.	.	16aa'\ 16ccc	.
.	.	.	16e\	.	16e\	.	16g/JJ	16cc\JJ	.	.	.	.	.	.	.	.	.	.	.	.	.	.	.	.	.	.	16cc\JJ	.	.	16aa'\JJ) 16ccc	.
*	*	*	*	*	*	*	*	*	*	*	*	*	*	*	*	*	*	*	*	*	*	*	*	*	*	*	*Xtremolo	*	*	*Xtremolo	*
.	.	.	.	.	.	.	.	.	.	.	.	.	.	.	.	.	.	.	.	.	.	.	.	.	.	.	(<32qqcc/LLL	.	(<32qqcc/LLL	(>32qqccc/LLL	.
.	.	.	.	.	.	.	.	.	.	.	.	.	.	.	.	.	.	.	.	.	.	.	.	.	.	.	32qqee/JJJ	.	32qqee/JJJ	32qqeee/JJJ	.
.	.	.	16e\	.	16e\	.	16g/LL	16cc\LL	.	.	.	.	.	.	.	.	.	.	.	.	.	.	.	.	.	.	16gg\LL)	.	8gg\)	16ggg\LL)	.
.	.	.	16e\	.	16e\	.	16g/	16cc\	.	.	.	.	.	.	.	.	.	.	.	.	.	.	.	.	.	.	16cc\	.	.	16ccc'\	.
.	.	.	16e\	.	16e\	.	16g/	16cc\	.	.	.	.	.	.	.	.	.	.	.	.	.	.	.	.	.	.	16cc\	.	8r	16ccc'\	.
.	.	.	16e\JJ	.	16e\JJ	.	16g/JJ	16cc\JJ	.	.	.	.	.	.	.	.	.	.	.	.	.	.	.	.	.	.	16cc\JJ	.	.	16ccc'\JJ	.
*	*	*	*Xtremolo	*	*Xtremolo	*	*Xtremolo	*Xtremolo	*	*	*	*	*	*	*	*	*	*	*	*	*	*	*	*	*	*	*	*	*	*	*
=10	=10	=10	=10	=10	=10	=10	=10	=10	=10	=10	=10	=10	=10	=10	=10	=10	=10	=10	=10	=10	=10	=10	=10	=10	=10	=10	=10	=10	=10	=10	=10
*	*	*	*tremolo	*	*tremolo	*	*tremolo	*tremolo	*	*	*	*	*	*	*	*	*	*	*	*	*	*	*	*	*	*	*tremolo	*	*	*tremolo	*
!	!	!	!	!	!	!	!	!	!	!	!	!	!	!	!	!	!	!	!	!	!	!	!	!	!	!	!	!	!	!LO:TX:t=P:....:problem	!
1ryy	1r	.	16d\LL	.	16d\LL	.	16f#X/LL	16b/LL	.	1ryy	1ryy	.	1ryy	.	1ryy	1ryy	.	1ryy	.	1ryy	1r	.	1r	.	1r	.	16b\LL	.	4r	16bb'\LL	.
.	.	.	16d\	.	16d\	.	16f#/	16b/	.	.	.	.	.	.	.	.	.	.	.	.	.	.	.	.	.	.	16b\	.	.	16bb'\	.
.	.	.	16d\	.	16d\	.	16f#/	16b/	.	.	.	.	.	.	.	.	.	.	.	.	.	.	.	.	.	.	16b\	.	.	16bb'\	.
.	.	.	16d\	.	16d\	.	16f#/JJ	16b/JJ	.	.	.	.	.	.	.	.	.	.	.	.	.	.	.	.	.	.	16b\JJ	.	.	16bb'\JJ	.
*	*	*	*	*	*	*	*	*	*	*	*	*	*	*	*	*	*	*	*	*	*	*	*	*	*	*	*Xtremolo	*	*	*Xtremolo	*
.	.	.	.	.	.	.	.	.	.	.	.	.	.	.	.	.	.	.	.	.	.	.	.	.	.	.	(<32qqb/LLL	.	(<32qqb/LLL	(<32qqbb/LLL	.
.	.	.	.	.	.	.	.	.	.	.	.	.	.	.	.	.	.	.	.	.	.	.	.	.	.	.	32qqdd/JJJ	.	32qqdd/JJJ	32qqddd/JJJ	.
.	.	.	16d\	.	16d\	.	16f#/LL	16b/LL	.	.	.	.	.	.	.	.	.	.	.	.	.	.	.	.	.	.	8ff#X\)	.	8ff#X\)	16fff#X\LL)	.
.	.	.	16d\	.	16d\	.	16f#/	16b/	.	.	.	.	.	.	.	.	.	.	.	.	.	.	.	.	.	.	.	.	.	16bb'\	.
.	.	.	16d\	.	16d\	.	16f#/	16b/	.	.	.	.	.	.	.	.	.	.	.	.	.	.	.	.	.	.	8r	.	8r	16bb'\	.
.	.	.	16d\JJ	.	16d\JJ	.	16f#/JJ	16b/JJ	.	.	.	.	.	.	.	.	.	.	.	.	.	.	.	.	.	.	.	.	.	16bb'\JJ	.
*	*	*	*	*	*	*	*	*	*	*	*	*	*	*	*	*	*	*	*	*	*	*	*	*	*	*	*	*	*tremolo	*tremolo	*
!	!	!	!	!	!	!	!	!	!	!	!	!	!	!	!	!	!	!	!	!	!	!	!	!	!	!	!	!	!	!LO:TX:t=P:....:problem	!
.	.	.	16c\LL	.	16c\LL	.	16e/LL	16a/LL	.	.	.	.	.	.	.	.	.	.	.	.	.	.	.	.	.	.	2r	.	16aa\LL	16aa'\LL	.
.	.	.	16c\	.	16c\	.	16e/	16a/	.	.	.	.	.	.	.	.	.	.	.	.	.	.	.	.	.	.	.	.	16aa\	16aa'\	.
.	.	.	16c\	.	16c\	.	16e/	16a/	.	.	.	.	.	.	.	.	.	.	.	.	.	.	.	.	.	.	.	.	16aa\	16aa'\	.
.	.	.	16c\	.	16c\	.	16e/JJ	16a/JJ	.	.	.	.	.	.	.	.	.	.	.	.	.	.	.	.	.	.	.	.	16aa\JJ	16aa'\JJ	.
!	!	!	!	!	!	!	!	!	!	!	!	!	!	!	!	!	!	!	!	!	!	!	!	!	!	!	!	!	!	!LO:TX:t=P:....:problem	!
.	.	.	16c\	.	16c\	.	16d/LL	16f#X/LL	.	.	.	.	.	.	.	.	.	.	.	.	.	.	.	.	.	.	.	.	16ff#X\LL	16ff#X'\LL	.
.	.	.	16c\	.	16c\	.	16d/	16f#/	.	.	.	.	.	.	.	.	.	.	.	.	.	.	.	.	.	.	.	.	16ff#\	16ff#'\	.
.	.	.	16c\	.	16c\	.	16d/	16f#/	.	.	.	.	.	.	.	.	.	.	.	.	.	.	.	.	.	.	.	.	16ff#\	16ff#'\	.
.	.	.	16c\JJ	.	16c\JJ	.	16d/JJ	16f#/JJ	.	.	.	.	.	.	.	.	.	.	.	.	.	.	.	.	.	.	.	.	16ff#\JJ	16ff#'\JJ	.
=11	=11	=11	=11	=11	=11	=11	=11	=11	=11	=11	=11	=11	=11	=11	=11	=11	=11	=11	=11	=11	=11	=11	=11	=11	=11	=11	=11	=11	=11	=11	=11
!	!	!	!	!	!	!	!	!	!	!	!	!	!	!	!	!	!	!	!	!	!	!	!	!	!	!	!	!	!LO:TX:a:t=col Fl.	!	!
!	!	!	!	!	!	!	!	!	!	!	!	!	!	!	!	!	!	!	!	!	!	!	!	!	!	!	!	!	!	!LO:TX:t=P:..:problem	!
1ryy	1r	.	16B\LL	.	16B/LL	.	16d/LL	16g/LL	.	1ryy	1ryy	.	1ryy	.	1ryy	1ryy	.	1ryy	.	1ryy	2r	.	2r	.	1r	.	1r	.	16gg'\LLyy	16gg'\LL	.
.	.	.	16B\	.	16B/	.	16d/	16g/	.	.	.	.	.	.	.	.	.	.	.	.	.	.	.	.	.	.	.	.	16gg'\yy	16gg'\	.
!	!	!	!	!	!	!	!	!	!	!	!	!	!	!	!	!	!	!	!	!	!	!	!	!	!	!	!	!	!	!LO:TX:t=P:..:problem	!
.	.	.	16c\	.	16c/	.	16d/	16f#X/	.	.	.	.	.	.	.	.	.	.	.	.	.	.	.	.	.	.	.	.	16ff#X'\yy	16ff#X'\	.
.	.	.	16c\	.	16c/	.	16d/	16f#/	.	.	.	.	.	.	.	.	.	.	.	.	.	.	.	.	.	.	.	.	16ff#'\yy	16ff#'\	.
!	!	!	!	!	!	!	!	!	!	!	!	!	!	!	!	!	!	!	!	!	!	!	!	!	!	!	!	!	!	!LO:TX:t=P:..:problem	!
.	.	.	16B\	.	16B/	.	16d/	16g/	.	.	.	.	.	.	.	.	.	.	.	.	.	.	.	.	.	.	.	.	16gg'\yy	16gg'\	.
.	.	.	16B\	.	16B/	.	16d/	16g/	.	.	.	.	.	.	.	.	.	.	.	.	.	.	.	.	.	.	.	.	16gg'\yy	16gg'\	.
!	!	!	!	!	!	!	!	!	!	!	!	!	!	!	!	!	!	!	!	!	!	!	!	!	!	!	!	!	!	!LO:TX:t=P:..:problem	!
.	.	.	16F#X\	.	16F#X/	.	16d/	16a/	.	.	.	.	.	.	.	.	.	.	.	.	.	.	.	.	.	.	.	.	16aa'\yy	16aa'\	.
.	.	.	16F#\JJ	.	16F#/JJ	.	16d/	16a/JJ	.	.	.	.	.	.	.	.	.	.	.	.	.	.	.	.	.	.	.	.	16aa'\JJyy	16aa'\JJ	.
.	.	.	16G/LL	.	16G/LL	.	16d/	16b/LL	.	.	.	.	.	.	.	.	.	.	.	.	4r	.	4r	.	.	.	.	.	16bb\LLyy	16bb\LL	.
.	.	.	16G/	.	16G/	.	16d/	16b/	.	.	.	.	.	.	.	.	.	.	.	.	.	.	.	.	.	.	.	.	16bb\yy	16bb\	.
.	.	.	16F#/	.	16F#/	.	16d/	16a/	.	.	.	.	.	.	.	.	.	.	.	.	.	.	.	.	.	.	.	.	16aa\yy	16aa\	.
.	.	.	16F#/	.	16F#/	.	16d/JJ	16a/	.	.	.	.	.	.	.	.	.	.	.	.	.	.	.	.	.	.	.	.	16aa\yy	16aa\	.
*	*	*	*	*	*	*	*	*	*	*	*	*	*	*	*	*	*	*	*	*	*	*	*^	*	*	*	*	*	*	*	*
!	!	!	!	!	!	!	!	!	!	!	!	!	!	!	!	!	!	!	!	!	!	!	!	!	!LO:DY:rj	!	!	!	!	!	!	!
.	.	.	16G/	.	16G/	.	16d/LL	16b/	.	.	.	.	.	.	.	.	.	.	.	.	[>4A\	.	(>4ee/	(<4cc#X\	p	.	.	.	.	16bb\yy	16bb\	.
.	.	.	16G/	.	16G/	.	16d/	16b/	.	.	.	.	.	.	.	.	.	.	.	.	.	.	.	.	.	.	.	.	.	16bb\yy	16bb\	.
.	.	.	16E/	.	16E/	.	16A/ 16g	16cc#X/	.	.	.	.	.	.	.	.	.	.	.	.	.	.	.	.	.	.	.	.	.	16ccc#X\yy	16ccc#X\	.
.	.	.	16E/JJ	.	16E/JJ	.	16A/JJ 16g	16cc#/JJ	.	.	.	.	.	.	.	.	.	.	.	.	.	.	.	.	.	.	.	.	.	16ccc#\JJyy	16ccc#\JJ	.
*	*	*	*Xtremolo	*	*Xtremolo	*	*Xtremolo	*Xtremolo	*	*	*	*	*	*	*	*	*	*	*	*	*	*	*	*	*	*	*	*	*	*Xtremolo	*Xtremolo	*
!!LO:PB:g=original
=12	=12	=12	=12	=12	=12	=12	=12	=12	=12	=12	=12	=12	=12	=12	=12	=12	=12	=12	=12	=12	=12	=12	=12	=12	=12	=12	=12	=12	=12	=12	=12	=12
!	!	!	!	!	!	!	!	!	!	!	!	!	!	!	!	!	!	!	!	!	!	!	!	!	!	!	!	!	!	!LO:N:xstem	!	!
1ryy	1r	.	4D/	.	4D/	.	4A/ 4f#X	4dd\	.	1r	1r	.	1r	.	1r	1r	.	1r	.	1r	4A\]	.	4ff#X/)	4dd\)	.	1r	.	1r	.	4ddd\	4ddd\	.
!	!	!	!	!	!	!	!	!	!	!	!	!	!	!	!	!	!	!	!	!	!	!	!	!	!LO:DY:a	!	!	!	!	!	!	!
.	.	.	4r	.	4r	.	4r	4r	.	.	.	.	.	.	.	.	.	.	.	.	4r	.	4dd/	4dd\	fp	.	.	.	.	4r	4r	.
.	.	.	2r	.	2r	.	4r	4r	.	.	.	.	.	.	.	.	.	.	.	.	2r	.	[>2dd^/	[<2dd\	.	.	.	.	.	2r	2r	.
.	.	.	.	.	.	.	(<4g/	(>4b\	.	.	.	.	.	.	.	.	.	.	.	.	.	.	.	.	.	.	.	.	.	.	.	.
=13	=13	=13	=13	=13	=13	=13	=13	=13	=13	=13	=13	=13	=13	=13	=13	=13	=13	=13	=13	=13	=13	=13	=13	=13	=13	=13	=13	=13	=13	=13	=13	=13
1ryy	1r	.	1r	.	1r	.	8a/)	8cc\)	.	1r	1r	.	1r	.	1r	1r	.	1r	.	1r	1r	.	1dd_>	1dd_<	.	1r	.	1r	.	1r	1r	.
.	.	.	.	.	.	.	8r	8r	.	.	.	.	.	.	.	.	.	.	.	.	.	.	.	.	.	.	.	.	.	.	.	.
.	.	.	.	.	.	.	(<4f#X/	(<4a/	.	.	.	.	.	.	.	.	.	.	.	.	.	.	.	.	.	.	.	.	.	.	.	.
.	.	.	.	.	.	.	8g/)	8b/)	.	.	.	.	.	.	.	.	.	.	.	.	.	.	.	.	.	.	.	.	.	.	.	.
.	.	.	.	.	.	.	8r	8r	.	.	.	.	.	.	.	.	.	.	.	.	.	.	.	.	.	.	.	.	.	.	.	.
.	.	.	.	.	.	.	(<4e/	(<4g/	.	.	.	.	.	.	.	.	.	.	.	.	.	.	.	.	.	.	.	.	.	.	.	.
=14	=14	=14	=14	=14	=14	=14	=14	=14	=14	=14	=14	=14	=14	=14	=14	=14	=14	=14	=14	=14	=14	=14	=14	=14	=14	=14	=14	=14	=14	=14	=14	=14
1ryy	1r	.	1r	.	1r	.	4f#X/)	4a/)	.	1r	1r	.	1r	.	1r	1r	.	1r	.	1r	1r	.	4dd/]	4dd\]	.	1r	.	1r	.	1r	1r	.
!	!	!	!	!	!	!	!	!	!	!	!	!	!	!	!	!	!	!	!	!	!	!	!	!	!LO:DY:a	!	!	!	!	!	!	!
.	.	.	.	.	.	.	4r	4r	.	.	.	.	.	.	.	.	.	.	.	.	.	.	4dd/	4dd\	fp	.	.	.	.	.	.	.
.	.	.	.	.	.	.	4r	4r	.	.	.	.	.	.	.	.	.	.	.	.	.	.	[>2dd/	[<2dd\	.	.	.	.	.	.	.	.
.	.	.	.	.	.	.	8.g/L	8.b\L	.	.	.	.	.	.	.	.	.	.	.	.	.	.	.	.	.	.	.	.	.	.	.	.
.	.	.	.	.	.	.	16b/Jk	16dd\Jk	.	.	.	.	.	.	.	.	.	.	.	.	.	.	.	.	.	.	.	.	.	.	.	.
=15	=15	=15	=15	=15	=15	=15	=15	=15	=15	=15	=15	=15	=15	=15	=15	=15	=15	=15	=15	=15	=15	=15	=15	=15	=15	=15	=15	=15	=15	=15	=15	=15
1ryy	1r	.	1r	.	1r	.	8a/	8cc\	.	1r	1r	.	1r	.	1r	1r	.	1r	.	1r	1r	.	1dd]	1dd]	.	1r	.	1r	.	1r	1r	.
.	.	.	.	.	.	.	8r	8r	.	.	.	.	.	.	.	.	.	.	.	.	.	.	.	.	.	.	.	.	.	.	.	.
.	.	.	.	.	.	.	8.f#X/L	8.a\L	.	.	.	.	.	.	.	.	.	.	.	.	.	.	.	.	.	.	.	.	.	.	.	.
.	.	.	.	.	.	.	16a/Jk	16cc\Jk	.	.	.	.	.	.	.	.	.	.	.	.	.	.	.	.	.	.	.	.	.	.	.	.
.	.	.	.	.	.	.	8g/	8b\	.	.	.	.	.	.	.	.	.	.	.	.	.	.	.	.	.	.	.	.	.	.	.	.
.	.	.	.	.	.	.	8r	8r	.	.	.	.	.	.	.	.	.	.	.	.	.	.	.	.	.	.	.	.	.	.	.	.
.	.	.	.	.	.	.	8.e/L	8.g/L	.	.	.	.	.	.	.	.	.	.	.	.	.	.	.	.	.	.	.	.	.	.	.	.
.	.	.	.	.	.	.	16g/Jk	16b/Jk	.	.	.	.	.	.	.	.	.	.	.	.	.	.	.	.	.	.	.	.	.	.	.	.
=16	=16	=16	=16	=16	=16	=16	=16	=16	=16	=16	=16	=16	=16	=16	=16	=16	=16	=16	=16	=16	=16	=16	=16	=16	=16	=16	=16	=16	=16	=16	=16	=16
*	*	*	*	*	*	*	*	*	*	*	*	*	*	*	*	*	*	*	*	*	*	*	*	*	*	*^	*	*	*	*	*	*
1ryy	2r	.	2r	.	2r	.	8f#X/	8a/	.	2r	2r	.	2r	.	2r	2r	.	2r	.	2r	2r	.	8dd/	8dd\	.	8r	8ryy	.	2r	.	8r	8r	.
.	.	.	.	.	.	.	8r	8r	.	.	.	.	.	.	.	.	.	.	.	.	.	.	8r	8ryy	.	(<16d/LL	16ryy	.	.	.	(>16dd\LL	(>16dd\LL	.
.	.	.	.	.	.	.	.	.	.	.	.	.	.	.	.	.	.	.	.	.	.	.	.	.	.	16f#X/JJ	16ryy	.	.	.	16ff#X\JJ	16ff#X\JJ	.
.	.	.	.	.	.	.	4r	4r	f	.	.	.	.	.	.	.	.	.	.	.	.	.	4r	4ryy	.	8a/L)	8ryy	.	.	.	8aa\L)	8aa\L)	.
.	.	.	.	.	.	.	.	.	.	.	.	.	.	.	.	.	.	.	.	.	.	.	.	.	.	(<16f#/L	16ryy	.	.	.	(>16ff#\L	(>16ff#\L	.
.	.	.	.	.	.	.	.	.	.	.	.	.	.	.	.	.	.	.	.	.	.	.	.	.	.	16a/JJ	16ryy	.	.	.	16aa\JJ	16aa\JJ	.
!	!	!	!LO:TX:a:t=senza sordini	!LO:DY:rj	!	!LO:DY:rj	!	!LO:TX:a:t=senza sordini	!	!	!	!	!	!LO:DY:rj	!	!	!LO:DY:rj	!	!	!	!	!LO:DY:a:rj	!	!	!	!	!	!	!	!LO:DY:rj	!	!	!
.	4D\	.	4A\ 4e	f	4A\ 4f#X 4dd	f	4d\ 4a 4ff#X	4d\ 4dd 4ccc	.	4Ra/	4Ree\	.	4C/	f	4D\ 4A	4F#X/ 4d	f	4f#X/ 4dd	.	4r	4A\	f	4r	4ryy	.	4cc/)	4f#X\	.	4aa\	f	4ccc\)	4ccc\)	.
.	4r	.	4r	.	4r	.	4r	4r	.	4r	4r	.	4r	.	4r	4r	.	4r	.	8d/L	4r	.	4dd/	4dd\	.	4r	4r	.	4r	.	4r	4r	.
.	.	.	.	.	.	.	.	.	.	.	.	.	.	.	.	.	.	.	.	16g/L	.	.	.	.	.	.	.	.	.	.	.	.	.
.	.	.	.	.	.	.	.	.	.	.	.	.	.	.	.	.	.	.	.	16b/JJ	.	.	.	.	.	.	.	.	.	.	.	.	.
*	*	*	*	*	*	*	*	*	*	*	*	*	*	*	*	*	*	*	*	*	*	*	*v	*v	*	*	*	*	*	*	*	*	*
*	*	*	*	*	*	*	*	*	*	*	*	*	*	*	*	*	*	*	*	*	*	*	*	*	*v	*v	*	*	*	*	*	*
!!LO:PB:g=original
=17	=17	=17	=17	=17	=17	=17	=17	=17	=17	=17	=17	=17	=17	=17	=17	=17	=17	=17	=17	=17	=17	=17	=17	=17	=17	=17	=17	=17	=17	=17	=17
*	*	*	*tremolo	*	*tremolo	*	*tremolo	*tremolo	*	*	*	*	*	*	*	*	*	*	*	*	*	*	*	*	*	*	*	*	*	*	*
!	!LO:TX:b:t=pizz	!	!	!	!	!	!	!	!	!	!	!	!	!	!	!	!	!	!	!	!	!	!	!	!	!	!	!	!	!	!
!	!	!	!	!LO:DY:rj	!	!LO:DY:rj	!	!	!LO:DY:rj	!	!	!	!	!	!	!	!	!	!	!	!	!	!	!	!	!	!	!	!	!	!
1r	4G\	.	16D/LL	p	16G\LL 16d	p	16B/LL	16g/LL	p	1r	1r	.	1r	.	1r	1r	.	1r	.	4.dd\	1r	.	1r	.	1r	.	1r	.	1r	1r	.
.	.	.	16D/	.	16G\ 16d	.	16B/	16g/	.	.	.	.	.	.	.	.	.	.	.	.	.	.	.	.	.	.	.	.	.	.	.
.	.	.	16D/	.	16G\ 16d	.	16B/	16g/	.	.	.	.	.	.	.	.	.	.	.	.	.	.	.	.	.	.	.	.	.	.	.
.	.	.	16D/	.	16G\ 16d	.	16B/	16g/	.	.	.	.	.	.	.	.	.	.	.	.	.	.	.	.	.	.	.	.	.	.	.
.	4r	.	16D/	.	16G\ 16d	.	16B/	16g/	.	.	.	.	.	.	.	.	.	.	.	.	.	.	.	.	.	.	.	.	.	.	.
.	.	.	16D/	.	16G\ 16d	.	16B/	16g/	.	.	.	.	.	.	.	.	.	.	.	.	.	.	.	.	.	.	.	.	.	.	.
.	.	.	16D/	.	16G\ 16d	.	16B/	16g/	.	.	.	.	.	.	.	.	.	.	.	16b/LL	.	.	.	.	.	.	.	.	.	.	.
.	.	.	16D/	.	16G\ 16d	.	16B/	16g/	.	.	.	.	.	.	.	.	.	.	.	16g/JJ	.	.	.	.	.	.	.	.	.	.	.
.	2r	.	16D/	.	16G\ 16d	.	16B/	16g/	.	.	.	.	.	.	.	.	.	.	.	4.d/	.	.	.	.	.	.	.	.	.	.	.
.	.	.	16D/	.	16G\ 16d	.	16B/	16g/	.	.	.	.	.	.	.	.	.	.	.	.	.	.	.	.	.	.	.	.	.	.	.
.	.	.	16D/	.	16G\ 16d	.	16B/	16g/	.	.	.	.	.	.	.	.	.	.	.	.	.	.	.	.	.	.	.	.	.	.	.
.	.	.	16D/	.	16G\ 16d	.	16B/	16g/	.	.	.	.	.	.	.	.	.	.	.	.	.	.	.	.	.	.	.	.	.	.	.
.	.	.	16D/	.	16G\ 16d	.	16B/	16g/	.	.	.	.	.	.	.	.	.	.	.	.	.	.	.	.	.	.	.	.	.	.	.
.	.	.	16D/	.	16G\ 16d	.	16B/	16g/	.	.	.	.	.	.	.	.	.	.	.	.	.	.	.	.	.	.	.	.	.	.	.
.	.	.	16D/	.	16G\ 16d	.	16B/	16g/	.	.	.	.	.	.	.	.	.	.	.	16g/LL	.	.	.	.	.	.	.	.	.	.	.
.	.	.	16D/JJ	.	16G\JJ 16d	.	16B/JJ	16g/JJ	.	.	.	.	.	.	.	.	.	.	.	16b/JJ	.	.	.	.	.	.	.	.	.	.	.
=18	=18	=18	=18	=18	=18	=18	=18	=18	=18	=18	=18	=18	=18	=18	=18	=18	=18	=18	=18	=18	=18	=18	=18	=18	=18	=18	=18	=18	=18	=18	=18
*	*	*	*rep	*	*rep	*	*rep	*rep	*	*	*	*	*	*	*	*	*	*	*	*	*	*	*	*	*	*	*	*	*	*	*
1r	4G\	.	16D/LL	.	16G\LL 16d	.	16B/LL	16g/LL	.	1ryy	1ryy	.	1ryy	.	1ryy	1ryy	.	1ryy	.	4.dd\	1ryy	.	1ryy	.	1ryy	.	1ryy	.	1ryy	1ryy	.
.	.	.	16D/	.	16G\ 16d	.	16B/	16g/	.	.	.	.	.	.	.	.	.	.	.	.	.	.	.	.	.	.	.	.	.	.	.
.	.	.	16D/	.	16G\ 16d	.	16B/	16g/	.	.	.	.	.	.	.	.	.	.	.	.	.	.	.	.	.	.	.	.	.	.	.
.	.	.	16D/	.	16G\ 16d	.	16B/	16g/	.	.	.	.	.	.	.	.	.	.	.	.	.	.	.	.	.	.	.	.	.	.	.
.	4r	.	16D/	.	16G\ 16d	.	16B/	16g/	.	.	.	.	.	.	.	.	.	.	.	.	.	.	.	.	.	.	.	.	.	.	.
.	.	.	16D/	.	16G\ 16d	.	16B/	16g/	.	.	.	.	.	.	.	.	.	.	.	.	.	.	.	.	.	.	.	.	.	.	.
.	.	.	16D/	.	16G\ 16d	.	16B/	16g/	.	.	.	.	.	.	.	.	.	.	.	16b/LL	.	.	.	.	.	.	.	.	.	.	.
.	.	.	16D/	.	16G\ 16d	.	16B/	16g/	.	.	.	.	.	.	.	.	.	.	.	16g/JJ	.	.	.	.	.	.	.	.	.	.	.
.	2r	.	16D/	.	16G\ 16d	.	16B/	16g/	.	.	.	.	.	.	.	.	.	.	.	(>4ee\	.	.	.	.	.	.	.	.	.	.	.
.	.	.	16D/	.	16G\ 16d	.	16B/	16g/	.	.	.	.	.	.	.	.	.	.	.	.	.	.	.	.	.	.	.	.	.	.	.
.	.	.	16D/	.	16G\ 16d	.	16B/	16g/	.	.	.	.	.	.	.	.	.	.	.	.	.	.	.	.	.	.	.	.	.	.	.
.	.	.	16D/	.	16G\ 16d	.	16B/	16g/	.	.	.	.	.	.	.	.	.	.	.	.	.	.	.	.	.	.	.	.	.	.	.
.	.	.	16D/	.	16G\ 16d	.	16B/	16g/	.	.	.	.	.	.	.	.	.	.	.	8dd\L)	.	.	.	.	.	.	.	.	.	.	.
.	.	.	16D/	.	16G\ 16d	.	16B/	16g/	.	.	.	.	.	.	.	.	.	.	.	.	.	.	.	.	.	.	.	.	.	.	.
.	.	.	16D/	.	16G\ 16d	.	16B/	16g/	.	.	.	.	.	.	.	.	.	.	.	16r	.	.	.	.	.	.	.	.	.	.	.
.	.	.	16D/JJ	.	16G\JJ 16d	.	16B/JJ	16g/JJ	.	.	.	.	.	.	.	.	.	.	.	16dd\Jk	.	.	.	.	.	.	.	.	.	.	.
*	*	*	*Xrep	*	*Xrep	*	*Xrep	*Xrep	*	*	*	*	*	*	*	*	*	*	*	*	*	*	*	*	*	*	*	*	*	*	*
=19	=19	=19	=19	=19	=19	=19	=19	=19	=19	=19	=19	=19	=19	=19	=19	=19	=19	=19	=19	=19	=19	=19	=19	=19	=19	=19	=19	=19	=19	=19	=19
*	*	*	*rep	*	*	*	*	*	*	*	*	*	*	*	*	*	*	*	*	*	*	*	*	*	*	*	*	*	*	*	*
1r	4GG/	.	16D/LL	.	16A\LL 16d	.	16c/LL	16f#X/LL	.	1ryy	1ryy	.	1ryy	.	1ryy	1ryy	.	1ryy	.	(>4.dd\	1ryy	.	1ryy	.	1ryy	.	1ryy	.	1ryy	1ryy	.
.	.	.	16D/	.	16A\ 16d	.	16c/	16f#/	.	.	.	.	.	.	.	.	.	.	.	.	.	.	.	.	.	.	.	.	.	.	.
.	.	.	16D/	.	16A\ 16d	.	16c/	16f#/	.	.	.	.	.	.	.	.	.	.	.	.	.	.	.	.	.	.	.	.	.	.	.
.	.	.	16D/	.	16A\ 16d	.	16c/	16f#/	.	.	.	.	.	.	.	.	.	.	.	.	.	.	.	.	.	.	.	.	.	.	.
.	4r	.	16D/	.	16A\ 16d	.	16c/	16f#/	.	.	.	.	.	.	.	.	.	.	.	.	.	.	.	.	.	.	.	.	.	.	.
.	.	.	16D/	.	16A\ 16d	.	16c/	16f#/	.	.	.	.	.	.	.	.	.	.	.	.	.	.	.	.	.	.	.	.	.	.	.
.	.	.	16D/	.	16A\ 16d	.	16c/	16f#/	.	.	.	.	.	.	.	.	.	.	.	16cc\LL	.	.	.	.	.	.	.	.	.	.	.
.	.	.	16D/	.	16A\ 16d	.	16c/	16f#/	.	.	.	.	.	.	.	.	.	.	.	16a\JJ)	.	.	.	.	.	.	.	.	.	.	.
.	2r	.	16D/	.	16A\ 16d	.	16c/	16f#/	.	.	.	.	.	.	.	.	.	.	.	(>4.f#X/	.	.	.	.	.	.	.	.	.	.	.
.	.	.	16D/	.	16A\ 16d	.	16c/	16f#/	.	.	.	.	.	.	.	.	.	.	.	.	.	.	.	.	.	.	.	.	.	.	.
.	.	.	16D/	.	16A\ 16d	.	16c/	16f#/	.	.	.	.	.	.	.	.	.	.	.	.	.	.	.	.	.	.	.	.	.	.	.
.	.	.	16D/	.	16A\ 16d	.	16c/	16f#/	.	.	.	.	.	.	.	.	.	.	.	.	.	.	.	.	.	.	.	.	.	.	.
.	.	.	16D/	.	16A\ 16d	.	16c/	16f#/	.	.	.	.	.	.	.	.	.	.	.	.	.	.	.	.	.	.	.	.	.	.	.
.	.	.	16D/	.	16A\ 16d	.	16c/	16f#/	.	.	.	.	.	.	.	.	.	.	.	.	.	.	.	.	.	.	.	.	.	.	.
.	.	.	16D/	.	16A\ 16d	.	16c/	16f#/	.	.	.	.	.	.	.	.	.	.	.	16ee\LL	.	.	.	.	.	.	.	.	.	.	.
.	.	.	16D/JJ	.	16A\JJ 16d	.	16c/JJ	16f#/JJ	.	.	.	.	.	.	.	.	.	.	.	16dd\JJ)	.	.	.	.	.	.	.	.	.	.	.
*	*	*	*Xrep	*	*	*	*	*	*	*	*	*	*	*	*	*	*	*	*	*	*	*	*	*	*	*	*	*	*	*	*
=20	=20	=20	=20	=20	=20	=20	=20	=20	=20	=20	=20	=20	=20	=20	=20	=20	=20	=20	=20	=20	=20	=20	=20	=20	=20	=20	=20	=20	=20	=20	=20
*	*	*	*rep	*	*	*	*	*	*	*	*	*	*	*	*	*	*	*	*	*	*	*	*	*	*	*	*	*	*	*	*
1r	4GG/	.	16D/LL	.	16G\LL 16d	.	16B/LL	16g/LL	.	1ryy	1ryy	.	1ryy	.	1ryy	1ryy	.	1ryy	.	(>4cc#X\	1ryy	.	1ryy	.	1ryy	.	1ryy	.	1ryy	1ryy	.
.	.	.	16D/	.	16G\ 16d	.	16B/	16g/	.	.	.	.	.	.	.	.	.	.	.	.	.	.	.	.	.	.	.	.	.	.	.
.	.	.	16D/	.	16G\ 16d	.	16B/	16g/	.	.	.	.	.	.	.	.	.	.	.	.	.	.	.	.	.	.	.	.	.	.	.
.	.	.	16D/	.	16G\ 16d	.	16B/	16g/	.	.	.	.	.	.	.	.	.	.	.	.	.	.	.	.	.	.	.	.	.	.	.
.	4r	.	16D/	.	16G\ 16d	.	16B/	16g/	.	.	.	.	.	.	.	.	.	.	.	16cc#\LL	.	.	.	.	.	.	.	.	.	.	.
.	.	.	16D/	.	16G\ 16d	.	16B/	16g/	.	.	.	.	.	.	.	.	.	.	.	16dd\	.	.	.	.	.	.	.	.	.	.	.
.	.	.	16D/	.	16G\ 16d	.	16B/	16g/	.	.	.	.	.	.	.	.	.	.	.	16gg\	.	.	.	.	.	.	.	.	.	.	.
.	.	.	16D/	.	16G\ 16d	.	16B/	16g/	.	.	.	.	.	.	.	.	.	.	.	16b\JJ	.	.	.	.	.	.	.	.	.	.	.
.	2r	.	16D/	.	16G\ 16d	.	16B/	16g/	.	.	.	.	.	.	.	.	.	.	.	8dd\)	.	.	.	.	.	.	.	.	.	.	.
.	.	.	16D/	.	16G\ 16d	.	16B/	16g/	.	.	.	.	.	.	.	.	.	.	.	.	.	.	.	.	.	.	.	.	.	.	.
!	!	!	!	!	!	!	!	!	!	!	!	!	!	!	!	!	!	!	!	!LO:N:vis=16	!	!	!	!	!	!	!	!	!	!	!
.	.	.	16D/	.	16G\ 16d	.	16B/	16g/	.	.	.	.	.	.	.	.	.	.	.	8r	.	.	.	.	.	.	.	.	.	.	.
.	.	.	16D/	.	16G\ 16d	.	16B/	16g/	.	.	.	.	.	.	.	.	.	.	.	.	.	.	.	.	.	.	.	.	.	.	.
.	.	.	16D/	.	16G\ 16d	.	16B/	16g/	.	.	.	.	.	.	.	.	.	.	.	16d/KL	.	.	.	.	.	.	.	.	.	.	.
.	.	.	16D/	.	16G\ 16d	.	16B/	16g/	.	.	.	.	.	.	.	.	.	.	.	8g/	.	.	.	.	.	.	.	.	.	.	.
.	.	.	16D/	.	16G\ 16d	.	16B/	16g/	.	.	.	.	.	.	.	.	.	.	.	.	.	.	.	.	.	.	.	.	.	.	.
.	.	.	16D/JJ	.	16G\JJ 16d	.	16B/JJ	16g/JJ	.	.	.	.	.	.	.	.	.	.	.	16b'/Jk	.	.	.	.	.	.	.	.	.	.	.
*	*	*	*Xrep	*	*	*	*	*	*	*	*	*	*	*	*	*	*	*	*	*	*	*	*	*	*	*	*	*	*	*	*
=21	=21	=21	=21	=21	=21	=21	=21	=21	=21	=21	=21	=21	=21	=21	=21	=21	=21	=21	=21	=21	=21	=21	=21	=21	=21	=21	=21	=21	=21	=21	=21
*	*	*	*rep	*	*rep	*	*rep	*rep	*	*	*	*	*	*	*	*	*	*	*	*	*	*	*	*	*	*	*	*	*	*	*
1r	4G\	.	16D/LL	.	16G\LL 16d	.	16B/LL	16g/LL	.	1ryy	1ryy	.	1ryy	.	1ryy	1ryy	.	1ryy	.	4.dd\	1ryy	.	1ryy	.	1ryy	.	1ryy	.	1ryy	1ryy	.
.	.	.	16D/	.	16G\ 16d	.	16B/	16g/	.	.	.	.	.	.	.	.	.	.	.	.	.	.	.	.	.	.	.	.	.	.	.
.	.	.	16D/	.	16G\ 16d	.	16B/	16g/	.	.	.	.	.	.	.	.	.	.	.	.	.	.	.	.	.	.	.	.	.	.	.
.	.	.	16D/	.	16G\ 16d	.	16B/	16g/	.	.	.	.	.	.	.	.	.	.	.	.	.	.	.	.	.	.	.	.	.	.	.
.	4r	.	16D/	.	16G\ 16d	.	16B/	16g/	.	.	.	.	.	.	.	.	.	.	.	.	.	.	.	.	.	.	.	.	.	.	.
.	.	.	16D/	.	16G\ 16d	.	16B/	16g/	.	.	.	.	.	.	.	.	.	.	.	.	.	.	.	.	.	.	.	.	.	.	.
.	.	.	16D/	.	16G\ 16d	.	16B/	16g/	.	.	.	.	.	.	.	.	.	.	.	16b/LL	.	.	.	.	.	.	.	.	.	.	.
.	.	.	16D/	.	16G\ 16d	.	16B/	16g/	.	.	.	.	.	.	.	.	.	.	.	16g/JJ	.	.	.	.	.	.	.	.	.	.	.
.	2r	.	16D/	.	16G\ 16d	.	16B/	16g/	.	.	.	.	.	.	.	.	.	.	.	4.d/	.	.	.	.	.	.	.	.	.	.	.
.	.	.	16D/	.	16G\ 16d	.	16B/	16g/	.	.	.	.	.	.	.	.	.	.	.	.	.	.	.	.	.	.	.	.	.	.	.
.	.	.	16D/	.	16G\ 16d	.	16B/	16g/	.	.	.	.	.	.	.	.	.	.	.	.	.	.	.	.	.	.	.	.	.	.	.
.	.	.	16D/	.	16G\ 16d	.	16B/	16g/	.	.	.	.	.	.	.	.	.	.	.	.	.	.	.	.	.	.	.	.	.	.	.
.	.	.	16D/	.	16G\ 16d	.	16B/	16g/	.	.	.	.	.	.	.	.	.	.	.	.	.	.	.	.	.	.	.	.	.	.	.
.	.	.	16D/	.	16G\ 16d	.	16B/	16g/	.	.	.	.	.	.	.	.	.	.	.	.	.	.	.	.	.	.	.	.	.	.	.
.	.	.	16D/	.	16G\ 16d	.	16B/	16g/	.	.	.	.	.	.	.	.	.	.	.	16g/LL	.	.	.	.	.	.	.	.	.	.	.
.	.	.	16D/JJ	.	16G\JJ 16d	.	16B/JJ	16g/JJ	.	.	.	.	.	.	.	.	.	.	.	16b/JJ	.	.	.	.	.	.	.	.	.	.	.
*	*	*	*Xrep	*	*Xrep	*	*Xrep	*Xrep	*	*	*	*	*	*	*	*	*	*	*	*	*	*	*	*	*	*	*	*	*	*	*
*	*	*	*Xtremolo	*	*Xtremolo	*	*Xtremolo	*Xtremolo	*	*	*	*	*	*	*	*	*	*	*	*	*	*	*	*	*	*	*	*	*	*	*
!!LO:PB:g=original
=22	=22	=22	=22	=22	=22	=22	=22	=22	=22	=22	=22	=22	=22	=22	=22	=22	=22	=22	=22	=22	=22	=22	=22	=22	=22	=22	=22	=22	=22	=22	=22
*	*	*	*tremolo	*	*tremolo	*	*tremolo	*tremolo	*	*	*	*	*	*	*	*	*	*	*	*	*	*	*	*	*	*	*	*	*	*	*
1ryy	4G\	.	16D/LL	.	16G\LL 16d	.	16B/LL	16g/LL	<	1r	1r	.	1r	.	1r	1r	.	1r	.	(>4dd\	1r	.	1r	.	1r	.	1r	.	1r	1r	.
.	.	.	16D/	.	16G\ 16d	.	16B/	16g/	.	.	.	.	.	.	.	.	.	.	.	.	.	.	.	.	.	.	.	.	.	.	.
.	.	.	16D/	.	16G\ 16d	.	16B/	16g/	.	.	.	.	.	.	.	.	.	.	.	.	.	.	.	.	.	.	.	.	.	.	.
.	.	.	16D/	.	16G\ 16d	.	16B/	16g/	.	.	.	.	.	.	.	.	.	.	.	.	.	.	.	.	.	.	.	.	.	.	.
.	4r	.	16D/	.	16G\ 16d	.	16B/	16g/	.	.	.	.	.	.	.	.	.	.	.	16dd\LL	.	.	.	.	.	.	.	.	.	.	.
.	.	.	16D/	.	16G\ 16d	.	16B/	16g/	.	.	.	.	.	.	.	.	.	.	.	16ee\	.	.	.	.	.	.	.	.	.	.	.
.	.	.	16D/	.	16G\ 16d	.	16B/	16g/	.	.	.	.	.	.	.	.	.	.	.	16dd\	.	.	.	.	.	.	.	.	.	.	.
.	.	.	16D/	.	16G\ 16d	.	16B/	16g/	.	.	.	.	.	.	.	.	.	.	.	16b\JJ	.	.	.	.	.	.	.	.	.	.	.
.	2r	.	16D/	.	16G\ 16d	.	16B/	16g/	.	.	.	.	.	.	.	.	.	.	.	4dd\)	.	.	.	.	.	.	.	.	.	.	.
.	.	.	16D/	.	16G\ 16d	.	16B/	16g/	.	.	.	.	.	.	.	.	.	.	.	.	.	.	.	.	.	.	.	.	.	.	.
.	.	.	16D/	.	16G\ 16d	.	16B/	16g/	.	.	.	.	.	.	.	.	.	.	.	.	.	.	.	.	.	.	.	.	.	.	.
.	.	.	16D/	.	16G\ 16d	.	16B/	16g/	.	.	.	.	.	.	.	.	.	.	.	.	.	.	.	.	.	.	.	.	.	.	.
.	.	.	16D/	.	16G\ 16d	.	16B/	16g/	.	.	.	.	.	.	.	.	.	.	.	8r	.	.	.	.	.	.	.	.	.	.	.
.	.	.	16D/	.	16G\ 16d	.	16B/	16g/	.	.	.	.	.	.	.	.	.	.	.	.	.	.	.	.	.	.	.	.	.	.	.
.	.	.	16D/	.	16G\ 16d	.	16B/	16g/	.	.	.	.	.	.	.	.	.	.	.	8b\	.	.	.	.	.	.	.	.	.	.	.
.	.	.	16D/JJ	.	16G\JJ 16d	.	16B/JJ	16g/JJ	.	.	.	.	.	.	.	.	.	.	.	.	.	.	.	.	.	.	.	.	.	.	.
=23	=23	=23	=23	=23	=23	=23	=23	=23	=23	=23	=23	=23	=23	=23	=23	=23	=23	=23	=23	=23	=23	=23	=23	=23	=23	=23	=23	=23	=23	=23	=23
*	*	*	*	*	*	*	*	*	*	*	*	*	*	*	*	*	*	*	*	*	*	*	*^	*	*^	*	*	*	*	*	*
!	!	!	!	!	!	!	!	!	!	!	!	!	!	!	!	!	!	!	!	!	!	!LO:DY:rj	!	!	!LO:DY:rj	!	!	!LO:DY:rj	!	!	!	!	!
1ryy	4F#X\	.	16C#X/LL	.	16d\LL	.	16d/LL	16b/LL	.	1r	1r	.	1r	.	1r	1r	.	1r	.	(>4.dd\	1F#X	p	(>2dd/	2b\	p	(>2b/	1f#X	p	1r	.	1r	1r	.
.	.	.	16C#/	.	16d\	.	16d/	16b/	.	.	.	.	.	.	.	.	.	.	.	.	.	.	.	.	.	.	.	.	.	.	.	.	.
.	.	.	16C#/	.	16d\	.	16d/	16b/	.	.	.	.	.	.	.	.	.	.	.	.	.	.	.	.	.	.	.	.	.	.	.	.	.
.	.	.	16C#/	.	16d\	.	16d/	16b/	[ >	.	.	.	.	.	.	.	.	.	.	.	.	.	.	.	.	.	.	.	.	.	.	.	.
.	4r	.	16C#/	.	16d\	.	16d/	16b/	.	.	.	.	.	.	.	.	.	.	.	.	.	.	.	.	.	.	.	.	.	.	.	.	.
.	.	.	16C#/	.	16d\	.	16d/	16b/	.	.	.	.	.	.	.	.	.	.	.	.	.	.	.	.	.	.	.	.	.	.	.	.	.
.	.	.	16C#/	.	16d\	.	16d/	16b/	.	.	.	.	.	.	.	.	.	.	.	16cc#X\LL	.	.	.	.	.	.	.	.	.	.	.	.	.
.	.	.	16C#/	.	16d\JJ	.	16d/JJ	16b/JJ	.	.	.	.	.	.	.	.	.	.	.	16b\JJ)	.	.	.	.	.	.	.	.	.	.	.	.	.
.	4F#\	.	16C#/	.	16c#X\LL	.	16e/LL	16a#X/LL	.	.	.	.	.	.	.	.	.	.	.	4.ff#X\	.	.	2ee/)	2cc#X\	.	2a#X/)	.	.	.	.	.	.	.
.	.	.	16C#/	.	16c#\	.	16e/	16a#/	.	.	.	.	.	.	.	.	.	.	.	.	.	.	.	.	.	.	.	.	.	.	.	.	.
.	.	.	16C#/	.	16c#\	.	16e/	16a#/	.	.	.	.	.	.	.	.	.	.	.	.	.	.	.	.	.	.	.	.	.	.	.	.	.
.	.	.	16C#/	.	16c#\	.	16e/	16a#/	.	.	.	.	.	.	.	.	.	.	.	.	.	.	.	.	.	.	.	.	.	.	.	.	.
.	4r	.	16C#/	.	16c#\	.	16e/	16a#/	.	.	.	.	.	.	.	.	.	.	.	.	.	.	.	.	.	.	.	.	.	.	.	.	.
.	.	.	16C#/	.	16c#\	.	16e/	16a#/	.	.	.	.	.	.	.	.	.	.	.	.	.	.	.	.	.	.	.	.	.	.	.	.	.
.	.	.	16C#/	.	16c#\	.	16e/	16a#/	.	.	.	.	.	.	.	.	.	.	.	8a#X/	.	.	.	.	.	.	.	.	.	.	.	.	.
.	.	.	16C#/JJ	.	16c#\JJ	.	16e/JJ	16a#/JJ	]	.	.	.	.	.	.	.	.	.	.	.	.	.	.	.	.	.	.	.	.	.	.	.	.
*	*	*	*	*	*	*	*	*Xtremolo	*	*	*	*	*	*	*	*	*	*	*	*	*	*	*	*	*	*	*	*	*	*	*	*	*
*	*	*	*	*	*	*	*	*	*	*	*	*	*	*	*	*	*	*	*	*	*	*	*	*	*	*v	*v	*	*	*	*	*	*
=24	=24	=24	=24	=24	=24	=24	=24	=24	=24	=24	=24	=24	=24	=24	=24	=24	=24	=24	=24	=24	=24	=24	=24	=24	=24	=24	=24	=24	=24	=24	=24	=24
!	!	!	!LO:TX:t=P:LO:SIC:v:s=16F# cały takt:problem	!	!	!	!	!	!	!	!	!	!	!	!	!	!	!	!	!	!	!	!	!	!	!	!	!	!	!	!	!
!	!	!	!LO:SIC:v:s=16F#/LL	!	!	!	!	!	!	!	!	!	!	!	!	!	!	!	!	!	!	!	!	!	!	!	!	!	!	!	!	!
1ryy	4BB/	.	16F/LL	.	16B/LL	.	16d/LL	16b/LL	.	1r	1r	.	1r	.	1r	1r	.	1r	.	(>4b\	4B\	.	4dd/	4dd\	.	4f#X/ 4b	.	1r	.	1r	1r	.
.	.	.	16F/	.	16B/	.	16d/	16f#X/	.	.	.	.	.	.	.	.	.	.	.	.	.	.	.	.	.	.	.	.	.	.	.	.
.	.	.	16F/	.	16B/	.	16d/	16f#/	.	.	.	.	.	.	.	.	.	.	.	.	.	.	.	.	.	.	.	.	.	.	.	.
.	.	.	16F/	.	16B/	.	16d/	16f#/JJ	.	.	.	.	.	.	.	.	.	.	.	.	.	.	.	.	.	.	.	.	.	.	.	.
*	*	*	*	*	*	*	*	*tremolo	*	*	*	*	*	*	*	*	*	*	*	*	*	*	*	*	*	*	*	*	*	*	*	*
.	4r	.	16F/	.	16B/	.	16d/	16f#/LL	.	.	.	.	.	.	.	.	.	.	.	16a#X\LL	4r	.	4r	4ryy	.	4r	.	.	.	.	.	.
.	.	.	16F/	.	16B/	.	16d/	16f#/	.	.	.	.	.	.	.	.	.	.	.	16b\	.	.	.	.	.	.	.	.	.	.	.	.
.	.	.	16F/	.	16B/	.	16d/	16f#/	.	.	.	.	.	.	.	.	.	.	.	16dd\	.	.	.	.	.	.	.	.	.	.	.	.
.	.	.	16F/	.	16B/	.	16d/	16f#/JJ	.	.	.	.	.	.	.	.	.	.	.	16cc#X\JJ	.	.	.	.	.	.	.	.	.	.	.	.
.	2r	.	16F/	.	16B/	.	16d/	16f#/LL	.	.	.	.	.	.	.	.	.	.	.	4b\)	2r	.	2r	2ryy	.	2r	.	.	.	.	.	.
.	.	.	16F/	.	16B/	.	16d/	16f#/	.	.	.	.	.	.	.	.	.	.	.	.	.	.	.	.	.	.	.	.	.	.	.	.
.	.	.	16F/	.	16B/	.	16d/	16f#/	.	.	.	.	.	.	.	.	.	.	.	.	.	.	.	.	.	.	.	.	.	.	.	.
.	.	.	16F/	.	16B/	.	16d/	16f#/	.	.	.	.	.	.	.	.	.	.	.	.	.	.	.	.	.	.	.	.	.	.	.	.
.	.	.	16F/	.	16B/	.	16d/	16f#/	.	.	.	.	.	.	.	.	.	.	.	8r	.	.	.	.	.	.	.	.	.	.	.	.
.	.	.	16F/	.	16B/	.	16d/	16f#/	.	.	.	.	.	.	.	.	.	.	.	.	.	.	.	.	.	.	.	.	.	.	.	.
.	.	.	16F/	.	16B/	.	16d/	16f#/	.	.	.	.	.	.	.	.	.	.	.	8b\	.	.	.	.	.	.	.	.	.	.	.	.
.	.	.	16F/JJ	.	16B/JJ	.	16d/JJ	16f#/JJ	.	.	.	.	.	.	.	.	.	.	.	.	.	.	.	.	.	.	.	.	.	.	.	.
*	*	*	*	*	*	*	*	*	*	*	*	*	*	*	*	*	*	*	*	*	*	*	*v	*v	*	*	*	*	*	*	*	*
=25	=25	=25	=25	=25	=25	=25	=25	=25	=25	=25	=25	=25	=25	=25	=25	=25	=25	=25	=25	=25	=25	=25	=25	=25	=25	=25	=25	=25	=25	=25	=25
!	!	!	!LO:TX:t=P:LO:SIC:v:s=16CnX cały takt?:problem	!	!	!	!	!	!	!	!	!	!	!	!	!	!	!	!	!	!	!	!	!	!	!	!	!	!	!	!
1ryy	4AA/	.	16EnX/LL	.	16cn\LL	.	16d/LL	16f#X/LL	.	1r	1r	.	1r	.	1r	1r	.	1r	.	(>4.ccn\	1r	.	1r	.	1r	.	1r	.	1r	1r	.
.	.	.	16E/	.	16c\	.	16d/	16f#/	.	.	.	.	.	.	.	.	.	.	.	.	.	.	.	.	.	.	.	.	.	.	.
.	.	.	16E/	.	16c\	.	16d/	16f#/	.	.	.	.	.	.	.	.	.	.	.	.	.	.	.	.	.	.	.	.	.	.	.
.	.	.	16E/	.	16c\	.	16d/	16f#/	.	.	.	.	.	.	.	.	.	.	.	.	.	.	.	.	.	.	.	.	.	.	.
.	4r	.	16E/	.	16c\	.	16d/	16f#/	.	.	.	.	.	.	.	.	.	.	.	.	.	.	.	.	.	.	.	.	.	.	.
.	.	.	16E/	.	16c\	.	16d/	16f#/	.	.	.	.	.	.	.	.	.	.	.	.	.	.	.	.	.	.	.	.	.	.	.
.	.	.	16E/	.	16c\	.	16d/	16f#/	.	.	.	.	.	.	.	.	.	.	.	16b/LL	.	.	.	.	.	.	.	.	.	.	.
.	.	.	16E/	.	16c\	.	16d/	16f#/	.	.	.	.	.	.	.	.	.	.	.	16a/JJ)	.	.	.	.	.	.	.	.	.	.	.
.	2r	.	16E/	.	16c\	.	16d/	16f#/	.	.	.	.	.	.	.	.	.	.	.	(4ee\	.	.	.	.	.	.	.	.	.	.	.
.	.	.	16E/	.	16c\	.	16d/	16f#/	.	.	.	.	.	.	.	.	.	.	.	.	.	.	.	.	.	.	.	.	.	.	.
.	.	.	16E/	.	16c\	.	16d/	16f#/	.	.	.	.	.	.	.	.	.	.	.	.	.	.	.	.	.	.	.	.	.	.	.
.	.	.	16E/	.	16c\	.	16d/	16f#/	.	.	.	.	.	.	.	.	.	.	.	.	.	.	.	.	.	.	.	.	.	.	.
.	.	.	16E/	.	16c\	.	16d/	16f#/	.	.	.	.	.	.	.	.	.	.	.	8.dd\L)	.	.	.	.	.	.	.	.	.	.	.
.	.	.	16E/	.	16c\	.	16d/	16f#/	.	.	.	.	.	.	.	.	.	.	.	.	.	.	.	.	.	.	.	.	.	.	.
.	.	.	16E/	.	16c\	.	16d/	16f#/	.	.	.	.	.	.	.	.	.	.	.	.	.	.	.	.	.	.	.	.	.	.	.
.	.	.	16E/JJ	.	16c\JJ	.	16d/JJ	16f#/JJ	.	.	.	.	.	.	.	.	.	.	.	16ccn|\Jk	.	.	.	.	.	.	.	.	.	.	.
*	*	*	*Xtremolo	*	*Xtremolo	*	*Xtremolo	*Xtremolo	*	*	*	*	*	*	*	*	*	*	*	*	*	*	*	*	*	*	*	*	*	*	*
!!LO:PB:g=original
=26	=26	=26	=26	=26	=26	=26	=26	=26	=26	=26	=26	=26	=26	=26	=26	=26	=26	=26	=26	=26	=26	=26	=26	=26	=26	=26	=26	=26	=26	=26	=26
*	*	*	*tremolo	*	*tremolo	*	*tremolo	*tremolo	*	*	*	*	*	*	*	*	*	*	*	*	*	*	*	*	*	*	*	*	*	*	*
!	!	!	!	!	!	!	!	!	!	!	!	!	!	!	!	!	!	!	!	!LO:TX:a:t=Solo Tromba	!LO:TX:a:t=Fag.	!	!	!	!	!	!	!	!	!	!
1ryy	4GG/	.	16D/LL	.	16B/LL	.	16d/LL	16g/LL	.	1r	1r	.	1r	.	1r	1r	.	1r	.	4b\	1r	.	1r	.	1r	.	2r	.	1r	2r	.
.	.	.	16D/	.	16B/	.	16d/	16g/	.	.	.	.	.	.	.	.	.	.	.	.	.	.	.	.	.	.	.	.	.	.	.
.	.	.	16D/	.	16B/	.	16d/	16g/	.	.	.	.	.	.	.	.	.	.	.	.	.	.	.	.	.	.	.	.	.	.	.
.	.	.	16D/	.	16B/	.	16d/	16g/	.	.	.	.	.	.	.	.	.	.	.	.	.	.	.	.	.	.	.	.	.	.	.
.	4r	.	16D/	.	16B/	.	16d/	16g/	.	.	.	.	.	.	.	.	.	.	.	(>16a#X\LL	.	.	.	.	.	.	.	.	.	.	.
.	.	.	16D/	.	16B/	.	16d/	16g/	.	.	.	.	.	.	.	.	.	.	.	16b\	.	.	.	.	.	.	.	.	.	.	.
.	.	.	16D/	.	16B/	.	16d/	16g/	.	.	.	.	.	.	.	.	.	.	.	16cc#X\	.	.	.	.	.	.	.	.	.	.	.
.	.	.	16D/	.	16B/	.	16d/	16g/	.	.	.	.	.	.	.	.	.	.	.	16dd\JJ	.	.	.	.	.	.	.	.	.	.	.
.	2r	.	16D/	.	16B/	.	16d/	16g/	.	.	.	.	.	.	.	.	.	.	.	4.gg\)	.	.	.	.	.	.	4r	p	.	4r	p
.	.	.	16D/	.	16B/	.	16d/	16g/	.	.	.	.	.	.	.	.	.	.	.	.	.	.	.	.	.	.	.	.	.	.	.
.	.	.	16D/	.	16B/	.	16d/	16g/	.	.	.	.	.	.	.	.	.	.	.	.	.	.	.	.	.	.	.	.	.	.	.
.	.	.	16D/	.	16B/	.	16d/	16g/	.	.	.	.	.	.	.	.	.	.	.	.	.	.	.	.	.	.	.	.	.	.	.
.	.	.	16D/	.	16B/	.	16d/	16g/	.	.	.	.	.	.	.	.	.	.	.	.	.	.	.	.	.	.	(>16a#X\LL	.	.	(>16aa#X\LL	.
.	.	.	16D/	.	16B/	.	16d/	16g/	.	.	.	.	.	.	.	.	.	.	.	.	.	.	.	.	.	.	16b\	.	.	16bb\	.
.	.	.	16D/	.	16B/	.	16d/	16g/	.	.	.	.	.	.	.	.	.	.	.	8g/	.	.	.	.	.	.	16cc#X\	.	.	16ccc#X\	.
.	.	.	16D/JJ	.	16B/JJ	.	16d/JJ	16g/JJ	.	.	.	.	.	.	.	.	.	.	.	.	.	.	.	.	.	.	16dd\JJ	.	.	16ddd\JJ	.
*	*	*	*Xtremolo	*	*	*	*	*	*	*	*	*	*	*	*	*	*	*	*	*	*	*	*	*	*	*	*	*	*	*	*
=27	=27	=27	=27	=27	=27	=27	=27	=27	=27	=27	=27	=27	=27	=27	=27	=27	=27	=27	=27	=27	=27	=27	=27	=27	=27	=27	=27	=27	=27	=27	=27
*	*	*	*clefF4	*	*	*	*	*	*	*	*	*	*	*	*	*	*	*	*	*	*	*	*	*	*	*	*	*	*	*	*
*	*	*	*	*	*	*	*	*	*	*	*	*	*	*	*	*	*	*	*	*	*	*	*^	*	*	*	*	*	*	*	*
!	!	!	!LO:TX:t=P::problem=razem z partią C&colon;Bassi a brak zmiany klucza	!	!	!	!	!	!	!	!	!	!	!	!	!	!	!	!	!	!	!	!	!	!	!	!	!	!	!	!	!
!	!	!	!LO:TX:t=//	!	!	!	!	!	!	!	!	!	!	!	!	!	!	!	!	!	!	!	!	!	!LO:DY:rj	!	!	!	!	!	!	!
1ryy	8C\L	.	8C\Lyy	.	16c/LL	.	16e/LL	16g/LL	.	1r	4r	p	1r	.	1r	1r	.	1r	.	(>4.gg\	1r	.	2ee/	2cc\	p	1r	.	8ee\)	.	1r	8eee\)	.
.	.	.	.	.	16c/	.	16e/	16g/	.	.	.	.	.	.	.	.	.	.	.	.	.	.	.	.	.	.	.	.	.	.	.	.
.	8E\	.	8E\yy	.	16c/	.	16e/	16g/	.	.	.	.	.	.	.	.	.	.	.	.	.	.	.	.	.	.	.	8r	.	.	8r	.
.	.	.	.	.	16c/	.	16e/	16g/	.	.	.	.	.	.	.	.	.	.	.	.	.	.	.	.	.	.	.	.	.	.	.	.
.	8G\J	.	8G\Jyy	.	16c/	.	16e/	16g/	.	.	4Ree\	.	.	.	.	.	.	.	.	.	.	.	.	.	.	.	.	4r	.	.	4r	.
.	.	.	.	.	16c/	.	16e/	16g/	.	.	.	.	.	.	.	.	.	.	.	.	.	.	.	.	.	.	.	.	.	.	.	.
.	8r	.	8ryy	.	16c/	.	16e/	16g/	.	.	.	.	.	.	.	.	.	.	.	16ee\LL	.	.	.	.	.	.	.	.	.	.	.	.
.	.	.	.	.	16c/JJ	.	16e/JJ	16g/	.	.	.	.	.	.	.	.	.	.	.	16cc\JJ	.	.	.	.	.	.	.	.	.	.	.	.
.	8GG/L	.	8GG/Lyy	.	16B/LL	.	16d/LL	16g/	.	.	4r	.	.	.	.	.	.	.	.	(>4.dd\)	.	.	2g/ 2dd	2ryy	.	.	.	2r	.	.	2r	.
.	.	.	.	.	16B/	.	16d/	16g/	.	.	.	.	.	.	.	.	.	.	.	.	.	.	.	.	.	.	.	.	.	.	.	.
.	8BB/	.	8BB/yy	.	16B/	.	16d/	16g/	.	.	.	.	.	.	.	.	.	.	.	.	.	.	.	.	.	.	.	.	.	.	.	.
.	.	.	.	.	16B/	.	16d/	16g/	.	.	.	.	.	.	.	.	.	.	.	.	.	.	.	.	.	.	.	.	.	.	.	.
.	8D/J	.	8D/Jyy	.	16B/	.	16d/	16g/	.	.	4Ree\	.	.	.	.	.	.	.	.	.	.	.	.	.	.	.	.	.	.	.	.	.
.	.	.	.	.	16B/	.	16d/	16g/	.	.	.	.	.	.	.	.	.	.	.	.	.	.	.	.	.	.	.	.	.	.	.	.
.	8r	.	8ryy	.	16B/	.	16d/	16g/	.	.	.	.	.	.	.	.	.	.	.	16b/LL	.	.	.	.	.	.	.	.	.	.	.	.
.	.	.	.	.	16B/JJ	.	16d/JJ	16g/JJ	.	.	.	.	.	.	.	.	.	.	.	16g/JJ	.	.	.	.	.	.	.	.	.	.	.	.
=28	=28	=28	=28	=28	=28	=28	=28	=28	=28	=28	=28	=28	=28	=28	=28	=28	=28	=28	=28	=28	=28	=28	=28	=28	=28	=28	=28	=28	=28	=28	=28	=28
1ryy	8C\L	.	8C\Lyy	.	16c/LL	.	16e/LL	16g/LL	.	1r	4r	.	1r	.	1r	1r	.	1r	.	(>4gg\)	1r	.	2ee/	2cc\	.	1r	.	1r	.	1r	1r	.
.	.	.	.	.	16c/	.	16e/	16g/	.	.	.	.	.	.	.	.	.	.	.	.	.	.	.	.	.	.	.	.	.	.	.	.
.	8E\	.	8E\yy	.	16c/	.	16e/	16g/	.	.	.	.	.	.	.	.	.	.	.	.	.	.	.	.	.	.	.	.	.	.	.	.
.	.	.	.	.	16c/	.	16e/	16g/	.	.	.	.	.	.	.	.	.	.	.	.	.	.	.	.	.	.	.	.	.	.	.	.
.	8G\J	.	8G\Jyy	.	16c/	.	16e/	16g/	.	.	4Ree\	.	.	.	.	.	.	.	.	16gg\LL	.	.	.	.	.	.	.	.	.	.	.	.
.	.	.	.	.	16c/	.	16e/	16g/	.	.	.	.	.	.	.	.	.	.	.	16aa\	.	.	.	.	.	.	.	.	.	.	.	.
.	8r	.	8ryy	.	16c/	.	16e/	16g/	.	.	.	.	.	.	.	.	.	.	.	16gg\	.	.	.	.	.	.	.	.	.	.	.	.
.	.	.	.	.	16c/JJ	.	16e/JJ	16g/	.	.	.	.	.	.	.	.	.	.	.	16ee\JJ	.	.	.	.	.	.	.	.	.	.	.	.
.	8GG/L	.	8GG/Lyy	.	16B/LL	.	16d/LL	16g/	.	.	4r	.	.	.	.	.	.	.	.	4dd\)	.	.	2g/ 2dd	2ryy	.	.	.	.	.	.	.	.
.	.	.	.	.	16B/	.	16d/	16g/	.	.	.	.	.	.	.	.	.	.	.	.	.	.	.	.	.	.	.	.	.	.	.	.
.	8BB/	.	8BB/yy	.	16B/	.	16d/	16g/	.	.	.	.	.	.	.	.	.	.	.	.	.	.	.	.	.	.	.	.	.	.	.	.
.	.	.	.	.	16B/	.	16d/	16g/	.	.	.	.	.	.	.	.	.	.	.	.	.	.	.	.	.	.	.	.	.	.	.	.
.	8D/J	.	8D/Jyy	.	16B/	.	16d/	16g/	.	.	4Ree\	.	.	.	.	.	.	.	.	8r	.	.	.	.	.	.	.	.	.	.	.	.
.	.	.	.	.	16B/	.	16d/	16g/	.	.	.	.	.	.	.	.	.	.	.	.	.	.	.	.	.	.	.	.	.	.	.	.
.	8r	.	8ryy	.	16B/	.	16d/	16g/	.	.	.	.	.	.	.	.	.	.	.	8dd\	.	.	.	.	.	.	.	.	.	.	.	.
.	.	.	.	.	16B/JJ	.	16d/JJ	16g/JJ	.	.	.	.	.	.	.	.	.	.	.	.	.	.	.	.	.	.	.	.	.	.	.	.
*	*	*	*	*	*Xtremolo	*	*Xtremolo	*Xtremolo	*	*	*	*	*	*	*	*	*	*	*	*	*	*	*	*	*	*	*	*	*	*	*	*
*	*	*	*	*	*	*	*	*	*	*	*	*	*	*	*	*	*	*	*	*	*	*	*v	*v	*	*	*	*	*	*	*	*
=29	=29	=29	=29	=29	=29	=29	=29	=29	=29	=29	=29	=29	=29	=29	=29	=29	=29	=29	=29	=29	=29	=29	=29	=29	=29	=29	=29	=29	=29	=29	=29
!	!LO:TX:a:t=l'arco	!	!LO:TXX:a:t=l'arco	!	!	!	!	!	!	!	!	!	!	!	!	!	!	!	!	!	!	!	!	!	!	!	!	!	!	!	!
1ryy	16E\LL	.	16E\LLyy	.	16A/LL	.	16c#X/LL	16g/LL	.	1r	1r	.	1r	.	1r	1r	.	1r	.	4cc#X\	1r	.	1r	.	1r	.	1r	.	8.r	8.r	p
.	16E\	.	16E\yy	.	16A/	.	16c#/	16g/	.	.	.	.	.	.	.	.	.	.	.	.	.	.	.	.	.	.	.	.	.	.	.
.	16E\JJ	.	16E\JJyy	.	16A/JJ	.	16c#/JJ	16g/JJ	.	.	.	.	.	.	.	.	.	.	.	.	.	.	.	.	.	.	.	.	.	.	.
.	16r	.	16ryy	.	16r	.	16r	16r	.	.	.	.	.	.	.	.	.	.	.	.	.	.	.	.	.	.	.	.	(>32ccc#X\LLL	(>32ccc#X\LLL	.
.	.	.	.	.	.	.	.	.	.	.	.	.	.	.	.	.	.	.	.	.	.	.	.	.	.	.	.	.	32eee\JJJ	32eee\JJJ	.
.	16E\LL	.	16E\LLyy	.	16A/LL	.	16c#/LL	16g/LL	.	.	.	.	.	.	.	.	.	.	.	8r	.	.	.	.	.	.	.	.	8gg\)	8gg\)	.
.	16E\	.	16E\yy	.	16A/	.	16c#/	16g/	.	.	.	.	.	.	.	.	.	.	.	.	.	.	.	.	.	.	.	.	.	.	.
.	16E\JJ	.	16E\JJyy	.	16A/JJ	.	16c#/JJ	16g/JJ	.	.	.	.	.	.	.	.	.	.	.	8cc#\	.	.	.	.	.	.	.	.	8r	8r	.
.	16r	.	16ryy	.	16r	.	16r	16r	.	.	.	.	.	.	.	.	.	.	.	.	.	.	.	.	.	.	.	.	.	.	.
.	16F#X\LL	.	16F#X\LLyy	.	16c/LL	.	16d/LL	16a/LL	.	.	.	.	.	.	.	.	.	.	.	4ccn\	.	.	.	.	.	.	.	.	8.r	8.r	.
.	16F#\	.	16F#\yy	.	16c/	.	16d/	16a/	.	.	.	.	.	.	.	.	.	.	.	.	.	.	.	.	.	.	.	.	.	.	.
.	16F#\JJ	.	16F#\JJyy	.	16c/JJ	.	16d/JJ	16a/JJ	.	.	.	.	.	.	.	.	.	.	.	.	.	.	.	.	.	.	.	.	.	.	.
.	16r	.	16ryy	.	16r	.	16r	16r	.	.	.	.	.	.	.	.	.	.	.	.	.	.	.	.	.	.	.	.	(>32aa\LLL	(>32aa\LLL	.
.	.	.	.	.	.	.	.	.	.	.	.	.	.	.	.	.	.	.	.	.	.	.	.	.	.	.	.	.	32cccn\JJJ)	32cccn\JJJ)	.
.	16F#\LL	.	16F#\LLyy	.	16c/LL	.	16d/LL	16a/LL	.	.	.	.	.	.	.	.	.	.	.	8r	.	.	.	.	.	.	.	.	8dd\	8dd\	.
.	16F#\	.	16F#\yy	.	16c/	.	16d/	16a/	.	.	.	.	.	.	.	.	.	.	.	.	.	.	.	.	.	.	.	.	.	.	.
.	16F#\JJ	.	16F#\JJyy	.	16c/JJ	.	16d/JJ	16a/JJ	.	.	.	.	.	.	.	.	.	.	.	8cc\	.	.	.	.	.	.	.	.	8r	8r	.
.	16r	.	16ryy	.	16r	.	16r	16r	.	.	.	.	.	.	.	.	.	.	.	.	.	.	.	.	.	.	.	.	.	.	.
!!LO:PB:g=original
=30	=30	=30	=30	=30	=30	=30	=30	=30	=30	=30	=30	=30	=30	=30	=30	=30	=30	=30	=30	=30	=30	=30	=30	=30	=30	=30	=30	=30	=30	=30	=30
!	!	!	!	!	!	!	!	!	!	!	!	!	!	!	!	!	!	!	!	!LO:TX:a:t=Solo Tromba	!LO:TX:a:t=Fag.	!	!	!	!	!	!	!	!	!	!
1r	16G\LL	.	16G\LLyy	.	16B/LL	.	16d/LL	16g/LL	.	1r	1r	.	1r	.	1r	1r	.	1r	.	4b\	1r	.	1r	.	1r	.	1r	.	1r	1r	.
.	16G\	.	16G\yy	.	16B/	.	16d/	16g/	.	.	.	.	.	.	.	.	.	.	.	.	.	.	.	.	.	.	.	.	.	.	.
.	16G\JJ	.	16G\JJyy	.	16B/JJ	.	16d/JJ	16g/JJ	.	.	.	.	.	.	.	.	.	.	.	.	.	.	.	.	.	.	.	.	.	.	.
.	16r	.	16ryy	.	16r	.	16r	16r	.	.	.	.	.	.	.	.	.	.	.	.	.	.	.	.	.	.	.	.	.	.	.
*	*rep	*	*repyy	*	*rep	*	*rep	*rep	*	*	*	*	*	*	*	*	*	*	*	*	*	*	*	*	*	*	*	*	*	*	*
.	16G\LL	.	16G\LLyy	.	16B/LL	.	16d/LL	16g/LL	.	.	.	.	.	.	.	.	.	.	.	8r	.	.	.	.	.	.	.	.	.	.	.
.	16G\	.	16G\yy	.	16B/	.	16d/	16g/	.	.	.	.	.	.	.	.	.	.	.	.	.	.	.	.	.	.	.	.	.	.	.
.	16G\JJ	.	16G\JJyy	.	16B/JJ	.	16d/JJ	16g/JJ	.	.	.	.	.	.	.	.	.	.	.	8b\	.	.	.	.	.	.	.	.	.	.	.
.	16r	.	16ryy	.	16r	.	16r	16r	.	.	.	.	.	.	.	.	.	.	.	.	.	.	.	.	.	.	.	.	.	.	.
*	*Xrep	*	*Xrep	*	*Xrep	*	*Xrep	*Xrep	*	*	*	*	*	*	*	*	*	*	*	*	*	*	*	*	*	*	*	*	*	*	*
.	16C/LL	.	16C/LLyy	.	16c/LL	.	16e/LL	16a/LL	.	.	.	.	.	.	.	.	.	.	.	(<16b/LL	.	.	.	.	.	.	.	.	.	.	.
.	16C/	.	16C/yy	.	16c/	.	16e/	16a/	.	.	.	.	.	.	.	.	.	.	.	16a/	.	.	.	.	.	.	.	.	.	.	.
.	16C/JJ	.	16C/JJyy	.	16c/JJ	.	16e/JJ	16a/JJ	.	.	.	.	.	.	.	.	.	.	.	16g#X/	.	.	.	.	.	.	.	.	.	.	.
.	16r	.	16ryy	.	16r	.	16r	16r	.	.	.	.	.	.	.	.	.	.	.	16a/JJ	.	.	.	.	.	.	.	.	.	.	.
*	*rep	*	*repyy	*	*rep	*	*rep	*rep	*	*	*	*	*	*	*	*	*	*	*	*	*	*	*	*	*	*	*	*	*	*	*
.	16C/LL	.	16C/LLyy	.	16c/LL	.	16e/LL	16a/LL	.	.	.	.	.	.	.	.	.	.	.	8cc\L)	.	.	.	.	.	.	.	.	.	.	.
.	16C/	.	16C/yy	.	16c/	.	16e/	16a/	.	.	.	.	.	.	.	.	.	.	.	.	.	.	.	.	.	.	.	.	.	.	.
.	16C/JJ	.	16C/JJyy	.	16c/JJ	.	16e/JJ	16a/JJ	.	.	.	.	.	.	.	.	.	.	.	8ee'\J	.	.	.	.	.	.	.	.	.	.	.
.	16r	.	16ryy	.	16r	.	16r	16r	.	.	.	.	.	.	.	.	.	.	.	.	.	.	.	.	.	.	.	.	.	.	.
*	*Xrep	*	*Xrep	*	*Xrep	*	*Xrep	*Xrep	*	*	*	*	*	*	*	*	*	*	*	*	*	*	*	*	*	*	*	*	*	*	*
=31	=31	=31	=31	=31	=31	=31	=31	=31	=31	=31	=31	=31	=31	=31	=31	=31	=31	=31	=31	=31	=31	=31	=31	=31	=31	=31	=31	=31	=31	=31	=31
1r	16D\LL	.	16D\LLyy	.	16B/LL	.	16d/LL	16g/LL	.	1r	1r	.	1r	.	1r	1r	.	1r	.	(>16ee\LL	1r	.	1r	.	1r	.	1r	.	1r	1r	.
.	16D\	.	16D\yy	.	16B/	.	16d/	16g/	.	.	.	.	.	.	.	.	.	.	.	16dd\	.	.	.	.	.	.	.	.	.	.	.
.	16D\JJ	.	16D\JJyy	.	16B/JJ	.	16d/JJ	16g/JJ	.	.	.	.	.	.	.	.	.	.	.	16b\	.	.	.	.	.	.	.	.	.	.	.
.	16r	.	16ryy	.	16r	.	16r	16r	.	.	.	.	.	.	.	.	.	.	.	16g\JJ	.	.	.	.	.	.	.	.	.	.	.
*	*rep	*	*repyy	*	*rep	*	*rep	*rep	*	*	*	*	*	*	*	*	*	*	*	*	*	*	*	*	*	*	*	*	*	*	*
.	16D\LL	.	16D\LLyy	.	16B/LL	.	16d/LL	16g/LL	.	.	.	.	.	.	.	.	.	.	.	4d/)	.	.	.	.	.	.	.	.	.	.	.
.	16D\	.	16D\yy	.	16B/	.	16d/	16g/	.	.	.	.	.	.	.	.	.	.	.	.	.	.	.	.	.	.	.	.	.	.	.
.	16D\JJ	.	16D\JJyy	.	16B/JJ	.	16d/JJ	16g/JJ	.	.	.	.	.	.	.	.	.	.	.	.	.	.	.	.	.	.	.	.	.	.	.
.	16r	.	16ryy	.	16r	.	16r	16r	.	.	.	.	.	.	.	.	.	.	.	.	.	.	.	.	.	.	.	.	.	.	.
*	*Xrep	*	*Xrep	*	*Xrep	*	*Xrep	*Xrep	*	*	*	*	*	*	*	*	*	*	*	*	*	*	*	*	*	*	*	*	*	*	*
*	*rep	*	*repyy	*	*	*	*rep	*	*	*	*	*	*	*	*	*	*	*	*	*	*	*	*	*	*	*	*	*	*	*	*
.	16D\LL	.	16D\LLyy	.	16c\LL	.	16d/LL	16f#X/LL	.	.	.	.	.	.	.	.	.	.	.	(<16e/LL	.	.	.	.	.	.	.	.	.	.	.
.	16D\	.	16D\yy	.	16c\	.	16d/	16f#/	.	.	.	.	.	.	.	.	.	.	.	16d/	.	.	.	.	.	.	.	.	.	.	.
.	16D\JJ	.	16D\JJyy	.	16c\JJ	.	16d/JJ	16f#/JJ	.	.	.	.	.	.	.	.	.	.	.	16c#X/	.	.	.	.	.	.	.	.	.	.	.
.	16r	.	16ryy	.	16r	.	16r	16r	.	.	.	.	.	.	.	.	.	.	.	16d/JJ)	.	.	.	.	.	.	.	.	.	.	.
*	*Xrep	*	*Xrep	*	*	*	*Xrep	*	*	*	*	*	*	*	*	*	*	*	*	*	*	*	*	*	*	*	*	*	*	*	*
*	*rep	*	*repyy	*	*rep	*	*rep	*rep	*	*	*	*	*	*	*	*	*	*	*	*	*	*	*	*	*	*	*	*	*	*	*
.	16D\LL	.	16D\LLyy	.	16c\LL	.	16d/LL	16f#/LL	.	.	.	.	.	.	.	.	.	.	.	8.b/L	.	.	.	.	.	.	.	.	.	.	.
.	16D\	.	16D\yy	.	16c\	.	16d/	16f#/	.	.	.	.	.	.	.	.	.	.	.	.	.	.	.	.	.	.	.	.	.	.	.
.	16D\JJ	.	16D\JJyy	.	16c\JJ	.	16d/JJ	16f#/JJ	.	.	.	.	.	.	.	.	.	.	.	.	.	.	.	.	.	.	.	.	.	.	.
.	16r	.	16ryy	.	16r	.	16r	16r	.	.	.	.	.	.	.	.	.	.	.	16a/Jk	.	.	.	.	.	.	.	.	.	.	.
*	*Xrep	*	*Xrep	*	*Xrep	*	*Xrep	*Xrep	*	*	*	*	*	*	*	*	*	*	*	*	*	*	*	*	*	*	*	*	*	*	*
=32	=32	=32	=32	=32	=32	=32	=32	=32	=32	=32	=32	=32	=32	=32	=32	=32	=32	=32	=32	=32	=32	=32	=32	=32	=32	=32	=32	=32	=32	=32	=32
*	*	*	*	*	*	*	*	*	*	*	*	*	*	*	*	*^	*	*	*	*	*	*	*	*	*^	*	*	*	*	*	*
!	!	!LO:DY:rj	!	!LO:DY:rj	!	!LO:DY:rj	!	!	!LO:DY:rj	!	!	!LO:DY:rj	!	!	!	!	!	!LO:DY:rj	!	!	!	!	!	!	!	!	!	!LO:DY:rj	!	!	!	!	!LO:DY:rj
*	*tremolo	*	*tremoloyy	*	*tremolo	*	*tremolo	*tremolo	*	*	*	*	*	*	*	*	*	*	*	*	*	*	*	*	*	*	*	*	*	*	*	*	*
1r	16E-X\LL	f	16E-X\LLyy	fy	16G/LL	f	16B-X/LL	16g/LL	f	4Ra/	4Ree\	f	4r	.	4E-X\	4g/	(<4B-X\	f	8r	.	4g/	4E-X\	f	4g\ 4gg	.	(>4b-X/	4g\	f	4gg\	.	4gg\	(>4bb-X\	f
.	16E-\	.	16E-\yy	.	16G/	.	16B-/	16g/	.	.	.	.	.	.	.	.	.	.	.	.	.	.	.	.	.	.	.	.	.	.	.	.	.
.	16E-\	.	16E-\yy	.	16G/	.	16B-/	16g/	.	.	.	.	.	.	.	.	.	.	16g/LL	f	.	.	.	.	.	.	.	.	.	.	.	.	.
.	16E-\	.	16E-\yy	.	16G/	.	16B-/JJ	16g/	.	.	.	.	.	.	.	.	.	.	16g/JJ	.	.	.	.	.	.	.	.	.	.	.	.	.	.
*	*	*	*	*	*	*	*	*	*	*	*2\right	*	*	*	*	*	*	*	*	*	*	*	*	*	*	*	*	*	*	*	*	*	*
*	*	*	*	*	*	*	*	*	*	*	*tremolo	*	*	*	*2\right	*2\right	*	*	*	*	*	*	*	*	*	*	*	*	*2\right	*	*2\right	*	*
.	16E-\	.	16E-\yy	.	16G/	.	16Bn/LL	16g/	.	4r	32Ree\LLL	.	2GGTT/	.	2E-\	2g/	4Bn\	.	8g/L	.	4r	2E-\	.	2g\ 2gg	.	4bn/	2g\	.	2gg\	.	2gg\	4bbn\	.
.	.	.	.	.	.	.	.	.	.	.	32Ree\	.	.	.	.	.	.	.	.	.	.	.	.	.	.	.	.	.	.	.	.	.	.
.	16E-\	.	16E-\yy	.	16G/	.	16B/	16g/	.	.	32Ree\	.	.	.	.	.	.	.	.	.	.	.	.	.	.	.	.	.	.	.	.	.	.
.	.	.	.	.	.	.	.	.	.	.	32Ree\	.	.	.	.	.	.	.	.	.	.	.	.	.	.	.	.	.	.	.	.	.	.
.	16E-\	.	16E-\yy	.	16G/	.	16B/	16g/	.	.	32Ree\	.	.	.	.	.	.	.	16g/L	.	.	.	.	.	.	.	.	.	.	.	.	.	.
.	.	.	.	.	.	.	.	.	.	.	32Ree\	.	.	.	.	.	.	.	.	.	.	.	.	.	.	.	.	.	.	.	.	.	.
.	16E-\	.	16E-\yy	.	16G/	.	16B/JJ	16g/	.	.	32Ree\	.	.	.	.	.	.	.	16g/JJ	.	.	.	.	.	.	.	.	.	.	.	.	.	.
.	.	.	.	.	.	.	.	.	.	.	32Ree\	.	.	.	.	.	.	.	.	.	.	.	.	.	.	.	.	.	.	.	.	.	.
*	*	*	*	*	*	*	*	*	*	*	*	*	*	*	*	*	*	*	*rep	*	*	*	*	*	*	*	*	*	*	*	*	*	*
.	16E-\	.	16E-\yy	.	16G/	.	16c/LL	16g/	.	2r	32Ree\	.	.	.	.	.	4c\	.	8g/L	.	4r	.	.	.	.	4cc/	.	.	.	.	.	4ccc\	.
.	.	.	.	.	.	.	.	.	.	.	32Ree\	.	.	.	.	.	.	.	.	.	.	.	.	.	.	.	.	.	.	.	.	.	.
.	16E-\	.	16E-\yy	.	16G/	.	16c/	16g/	.	.	32Ree\	.	.	.	.	.	.	.	.	.	.	.	.	.	.	.	.	.	.	.	.	.	.
.	.	.	.	.	.	.	.	.	.	.	32Ree\	.	.	.	.	.	.	.	.	.	.	.	.	.	.	.	.	.	.	.	.	.	.
.	16E-\	.	16E-\yy	.	16G/	.	16c/	16g/	.	.	32Ree\	.	.	.	.	.	.	.	16g/L	.	.	.	.	.	.	.	.	.	.	.	.	.	.
.	.	.	.	.	.	.	.	.	.	.	32Ree\	.	.	.	.	.	.	.	.	.	.	.	.	.	.	.	.	.	.	.	.	.	.
.	16E-\	.	16E-\yy	.	16G/	.	16c/JJ	16g/	.	.	32Ree\	.	.	.	.	.	.	.	16g/JJ	.	.	.	.	.	.	.	.	.	.	.	.	.	.
.	.	.	.	.	.	.	.	.	.	.	32Ree\JJJ	.	.	.	.	.	.	.	.	.	.	.	.	.	.	.	.	.	.	.	.	.	.
*	*	*	*	*	*	*	*	*	*	*	*Xtremolo	*	*	*	*	*	*	*	*Xrep	*	*	*	*	*	*	*	*	*	*	*	*	*	*
.	16E-\	.	16E-\yy	.	16G/	.	16c#X/LL	16g/	.	.	4Ree\	.	4GG/	.	4E-\	4c#X/	4A\	.	8g/L	.	4g/	4E-\	.	4g\ 4gg	.	4cc#X/)	4g\	.	4gg\	.	4cc#X\	4gg\)	.
.	16E-\	.	16E-\yy	.	16G/	.	16c#/	16g/	.	.	.	.	.	.	.	.	.	.	.	.	.	.	.	.	.	.	.	.	.	.	.	.	.
.	16E-\	.	16E-\yy	.	16G/	.	16c#/	16g/	.	.	.	.	.	.	.	.	.	.	8g/J	.	.	.	.	.	.	.	.	.	.	.	.	.	.
.	16E-\JJ	.	16E-\JJyy	.	16G/JJ	.	16c#/JJ	16g/JJ	.	.	.	.	.	.	.	.	.	.	.	.	.	.	.	.	.	.	.	.	.	.	.	.	.
*	*Xtremolo	*	*Xtremolo	*	*Xtremolo	*	*Xtremolo	*Xtremolo	*	*	*	*	*	*	*	*	*	*	*	*	*	*	*	*	*	*	*	*	*	*	*	*	*
=33	=33	=33	=33	=33	=33	=33	=33	=33	=33	=33	=33	=33	=33	=33	=33	=33	=33	=33	=33	=33	=33	=33	=33	=33	=33	=33	=33	=33	=33	=33	=33	=33	=33
1r	16D\LL	p	16D\LLyy	py	16G/LL	p	16Bn/LL 16d	16g/LL	p	1r	8Ree\	.	8GG/	.	8D\	8d/	8Bn\)	.	8g/	.	(>[>4gg\	8D\	.	8g\ 8gg	.	8dd/	8bn\	.	8gg\	.	8dd\	8bbn\	.
.	16D\	.	16D\yy	.	16G/	.	16B/ 16d	16g/	.	.	.	.	.	.	.	.	.	.	.	.	.	.	.	.	.	.	.	.	.	.	.	.	.
.	16D\JJ	.	16D\JJyy	.	16G/JJ	.	16B/JJ 16d	16g/JJ	.	.	8r	.	8r	.	8r	8r	8ryy	.	8r	.	.	8r	.	8r	.	8r	8ryy	.	8r	.	8r	8r	.
.	16r	.	16ryy	.	16r	.	16r	16r	.	.	.	.	.	.	.	.	.	.	.	.	.	.	.	.	.	.	.	.	.	.	.	.	.
*	*rep	*	*repyy	*	*rep	*	*rep	*rep	*	*	*	*	*	*	*	*	*	*	*	*	*	*	*	*	*	*	*	*	*	*	*	*	*
.	16D\LL	.	16D\LLyy	.	16G/LL	.	16B/LL 16d	16g/LL	.	.	4r	.	4r	.	4r	4r	4ryy	.	4r	.	8gg\L]	4r	.	4r	.	4r	4ryy	.	4r	.	4r	4r	.
.	16D\	.	16D\yy	.	16G/	.	16B/ 16d	16g/	.	.	.	.	.	.	.	.	.	.	.	.	.	.	.	.	.	.	.	.	.	.	.	.	.
.	16D\JJ	.	16D\JJyy	.	16G/JJ	.	16B/JJ 16d	16g/JJ	.	.	.	.	.	.	.	.	.	.	.	.	32gg\LL	.	.	.	.	.	.	.	.	.	.	.	.
.	.	.	.	.	.	.	.	.	.	.	.	.	.	.	.	.	.	.	.	.	32dd\	.	.	.	.	.	.	.	.	.	.	.	.
.	16r	.	16ryy	.	16r	.	16r	16r	.	.	.	.	.	.	.	.	.	.	.	.	32b\	.	.	.	.	.	.	.	.	.	.	.	.
.	.	.	.	.	.	.	.	.	.	.	.	.	.	.	.	.	.	.	.	.	32g\JJJ)	.	.	.	.	.	.	.	.	.	.	.	.
*	*Xrep	*	*Xrep	*	*Xrep	*	*Xrep	*Xrep	*	*	*	*	*	*	*	*	*	*	*	*	*	*	*	*	*	*	*	*	*	*	*	*	*
*	*rep	*	*repyy	*	*	*	*	*	*	*	*	*	*	*	*	*	*	*	*	*	*	*	*	*	*	*	*	*	*	*	*	*	*
.	16D\LL	.	16D\LLyy	.	16A/LL	.	16cn/LL	16f#X/LL	.	.	2r	.	2r	.	2r	2r	2ryy	.	2r	.	(<8d/L	2r	.	2r	.	2r	2ryy	.	2r	.	2r	2r	.
.	16D\	.	16D\yy	.	16A/	.	16c/	16f#/	.	.	.	.	.	.	.	.	.	.	.	.	.	.	.	.	.	.	.	.	.	.	.	.	.
.	16D\JJ	.	16D\JJyy	.	16A/JJ	.	16c/JJ	16f#/JJ	.	.	.	.	.	.	.	.	.	.	.	.	32d/LL	.	.	.	.	.	.	.	.	.	.	.	.
.	.	.	.	.	.	.	.	.	.	.	.	.	.	.	.	.	.	.	.	.	32f#X/	.	.	.	.	.	.	.	.	.	.	.	.
!	!	!	!	!	!LO:TX:t=P:problem=błąd rytmiczny	!	!	!	!	!	!	!	!	!	!	!	!	!	!	!	!	!	!	!	!	!	!	!	!	!	!	!	!
.	16r	.	16ryy	.	16r	.	16r	16r	.	.	.	.	.	.	.	.	.	.	.	.	32a/	.	.	.	.	.	.	.	.	.	.	.	.
.	.	.	.	.	.	.	.	.	.	.	.	.	.	.	.	.	.	.	.	.	32cc/JJJ)	.	.	.	.	.	.	.	.	.	.	.	.
*	*Xrep	*	*Xrep	*	*	*	*	*	*	*	*	*	*	*	*	*	*	*	*	*	*	*	*	*	*	*	*	*	*	*	*	*	*
*	*rep	*	*repyy	*	*rep	*	*rep	*rep	*	*	*	*	*	*	*	*	*	*	*	*	*	*	*	*	*	*	*	*	*	*	*	*	*
.	16D\LL	.	16D\LLyy	.	16A/LL	.	16c/LL	16f#/LL	.	.	.	.	.	.	.	.	.	.	.	.	8.ee\L	.	.	.	.	.	.	.	.	.	.	.	.
.	16D\	.	16D\yy	.	16A/	.	16c/	16f#/	.	.	.	.	.	.	.	.	.	.	.	.	.	.	.	.	.	.	.	.	.	.	.	.	.
.	16D\JJ	.	16D\JJyy	.	16A/JJ	.	16c/JJ	16f#/JJ	.	.	.	.	.	.	.	.	.	.	.	.	.	.	.	.	.	.	.	.	.	.	.	.	.
.	16r	.	16ryy	.	16r	.	16r	16r	.	.	.	.	.	.	.	.	.	.	.	.	16dd\Jk	.	.	.	.	.	.	.	.	.	.	.	.
*	*Xrep	*	*Xrep	*	*Xrep	*	*Xrep	*Xrep	*	*	*	*	*	*	*	*	*	*	*	*	*	*	*	*	*	*	*	*	*	*	*	*	*
!!LO:PB:g=original
=34	=34	=34	=34	=34	=34	=34	=34	=34	=34	=34	=34	=34	=34	=34	=34	=34	=34	=34	=34	=34	=34	=34	=34	=34	=34	=34	=34	=34	=34	=34	=34	=34	=34
*	*tremolo	*	*tremoloyy	*	*tremolo	*	*tremolo	*tremolo	*	*	*	*	*	*	*	*	*	*	*	*	*	*	*	*	*	*	*	*	*	*	*	*	*
!	!	!LO:DY:rj	!	!LO:DY:rj	!	!LO:DY:rj	!	!	!LO:DY:rj	!	!	!	!	!	!	!	!	!	!	!	!	!	!	!	!	!	!	!	!	!	!	!	!
1ryy	16E-X\LL	f	16E-X\LLyy	fy	16G/LL	f	16B-X/LL	16g/LL	f	4Ra/	4Ree\	.	4r	.	4E-X\	4g/	4G\	.	8r	.	4g/	4E-X\	.	4g\ 4gg	.	(>4b-X/	4g\	.	4gg\	.	4gg'\	(>4bb-X\	.
.	16E-\	.	16E-\yy	.	16G/	.	16B-/	16g/	.	.	.	.	.	.	.	.	.	.	.	.	.	.	.	.	.	.	.	.	.	.	.	.	.
.	16E-\	.	16E-\yy	.	16G/	.	16B-/	16g/	.	.	.	.	.	.	.	.	.	.	16g/LL	.	.	.	.	.	.	.	.	.	.	.	.	.	.
.	16E-\	.	16E-\yy	.	16G/	.	16B-/JJ	16g/	.	.	.	.	.	.	.	.	.	.	16g/JJ	.	.	.	.	.	.	.	.	.	.	.	.	.	.
*	*	*	*	*	*	*	*	*	*	*	*tremolo	*	*	*	*	*	*	*	*	*	*	*	*	*	*	*	*	*	*	*	*	*	*
.	16E-\	.	16E-\yy	.	16G/	.	16Bn/LL	16g/	.	4r	32Ree\LLL	.	2GGTT/	.	2E-\	2g^</	2G\	.	8g/L	.	4r	2E-\	.	2g^<\ 2gg	.	4bn/	2g\	.	2gg\	.	(>2gg\	4bbn\	.
.	.	.	.	.	.	.	.	.	.	.	32Ree\	.	.	.	.	.	.	.	.	.	.	.	.	.	.	.	.	.	.	.	.	.	.
.	16E-\	.	16E-\yy	.	16G/	.	16B/	16g/	.	.	32Ree\	.	.	.	.	.	.	.	.	.	.	.	.	.	.	.	.	.	.	.	.	.	.
.	.	.	.	.	.	.	.	.	.	.	32Ree\	.	.	.	.	.	.	.	.	.	.	.	.	.	.	.	.	.	.	.	.	.	.
.	16E-\	.	16E-\yy	.	16G/	.	16B/	16g/	.	.	32Ree\	.	.	.	.	.	.	.	16g/L	.	.	.	.	.	.	.	.	.	.	.	.	.	.
.	.	.	.	.	.	.	.	.	.	.	32Ree\	.	.	.	.	.	.	.	.	.	.	.	.	.	.	.	.	.	.	.	.	.	.
.	16E-\	.	16E-\yy	.	16G/	.	16B/JJ	16g/	.	.	32Ree\	.	.	.	.	.	.	.	16g/JJ	.	.	.	.	.	.	.	.	.	.	.	.	.	.
.	.	.	.	.	.	.	.	.	.	.	32Ree\	.	.	.	.	.	.	.	.	.	.	.	.	.	.	.	.	.	.	.	.	.	.
*	*	*	*	*	*	*	*	*	*	*	*	*	*	*	*	*	*	*	*rep	*	*	*	*	*	*	*	*	*	*	*	*	*	*
.	16E-\	.	16E-\yy	.	16G/	.	16c/LL	16g/	.	2r	32Ree\	.	.	.	.	.	.	.	8g/L	.	4r	.	.	.	.	4cc/	.	.	.	.	.	4ccc\	.
.	.	.	.	.	.	.	.	.	.	.	32Ree\	.	.	.	.	.	.	.	.	.	.	.	.	.	.	.	.	.	.	.	.	.	.
.	16E-\	.	16E-\yy	.	16G/	.	16c/	16g/	.	.	32Ree\	.	.	.	.	.	.	.	.	.	.	.	.	.	.	.	.	.	.	.	.	.	.
.	.	.	.	.	.	.	.	.	.	.	32Ree\	.	.	.	.	.	.	.	.	.	.	.	.	.	.	.	.	.	.	.	.	.	.
.	16E-\	.	16E-\yy	.	16G/	.	16c/	16g/	.	.	32Ree\	.	.	.	.	.	.	.	16g/L	.	.	.	.	.	.	.	.	.	.	.	.	.	.
.	.	.	.	.	.	.	.	.	.	.	32Ree\	.	.	.	.	.	.	.	.	.	.	.	.	.	.	.	.	.	.	.	.	.	.
.	16E-\	.	16E-\yy	.	16G/	.	16c/JJ	16g/	.	.	32Ree\	.	.	.	.	.	.	.	16g/JJ	.	.	.	.	.	.	.	.	.	.	.	.	.	.
.	.	.	.	.	.	.	.	.	.	.	32Ree\JJJ	.	.	.	.	.	.	.	.	.	.	.	.	.	.	.	.	.	.	.	.	.	.
*	*	*	*	*	*	*	*	*	*	*	*Xtremolo	*	*	*	*	*	*	*	*Xrep	*	*	*	*	*	*	*	*	*	*	*	*	*	*
.	16E-\	.	16E-\yy	.	16G/	.	16c#X/LL	16g/	.	.	4Ree\	.	4GG/	.	4E-\	4c#X/	4G\	.	8g/L	.	4cc#X\	4E-\	.	4g\ 4gg	.	4cc#X/	4g\	.	4gg\	.	4cc#X\	4gg\	.
.	16E-\	.	16E-\yy	.	16G/	.	16c#/	16g/	.	.	.	.	.	.	.	.	.	.	.	.	.	.	.	.	.	.	.	.	.	.	.	.	.
.	16E-\	.	16E-\yy	.	16G/	.	16c#/	16g/	.	.	.	.	.	.	.	.	.	.	8g/J	.	.	.	.	.	.	.	.	.	.	.	.	.	.
.	16E-\JJ	.	16E-\JJyy	.	16G/JJ	.	16c#/JJ	16g/JJ	.	.	.	.	.	.	.	.	.	.	.	.	.	.	.	.	.	.	.	.	.	.	.	.	.
*	*Xtremolo	*	*Xtremolo	*	*Xtremolo	*	*Xtremolo	*Xtremolo	*	*	*	*	*	*	*	*	*	*	*	*	*	*	*	*	*	*	*	*	*	*	*	*	*
=35	=35	=35	=35	=35	=35	=35	=35	=35	=35	=35	=35	=35	=35	=35	=35	=35	=35	=35	=35	=35	=35	=35	=35	=35	=35	=35	=35	=35	=35	=35	=35	=35	=35
1ryy	8D\	.	8D\yy	.	8G/	.	8Bn/ 8d	8g/	.	1r;>	8Ree\	.	8GG/	.	8D\	8d/	8Bn\	.	8g/	.	(>8dd\L	8D\	.	8g\ 8gg	.	8dd/)	8bn\	.	8gg\	.	8dd\)	8bbn\)	.
.	8r	.	8ryy	.	8r	.	8r	8r	.	.	8r	.	8r	.	8r	8r	8ryy	.	8r	.	32ee\LL	8r	.	8r	.	8r	8ryy	.	8r	.	8r	8r	.
.	.	.	.	.	.	.	.	.	.	.	.	.	.	.	.	.	.	.	.	.	32dd\	.	.	.	.	.	.	.	.	.	.	.	.
.	.	.	.	.	.	.	.	.	.	.	.	.	.	.	.	.	.	.	.	.	32cc\	.	.	.	.	.	.	.	.	.	.	.	.
.	.	.	.	.	.	.	.	.	.	.	.	.	.	.	.	.	.	.	.	.	32b\JJJ)	.	.	.	.	.	.	.	.	.	.	.	.
.	4r	.	4ryy	.	4r	.	4r	4r	.	.	4r	.	4r	.	4r	4r	4ryy	.	4r	.	(<8a/L	4r	.	4r	.	4r	4ryy	.	4r	.	4r	4r	.
.	.	.	.	.	.	.	.	.	.	.	.	.	.	.	.	.	.	.	.	.	32a/LL	.	.	.	.	.	.	.	.	.	.	.	.
.	.	.	.	.	.	.	.	.	.	.	.	.	.	.	.	.	.	.	.	.	32g/	.	.	.	.	.	.	.	.	.	.	.	.
.	.	.	.	.	.	.	.	.	.	.	.	.	.	.	.	.	.	.	.	.	32f#X/	.	.	.	.	.	.	.	.	.	.	.	.
.	.	.	.	.	.	.	.	.	.	.	.	.	.	.	.	.	.	.	.	.	32e/JJJ	.	.	.	.	.	.	.	.	.	.	.	.
*	*	*	*	*	*	*	*	*	*	*	*	*	*	*	*	*	*	*	*	*	*Xtuplet	*	*	*	*	*	*	*	*	*	*	*	*
!	!	!	!	!	!	!	!	!	!	!	!	!	!	!	!	!	!	!	!	!	!LO:TX:t=P:problem=mixed beam	!	!	!	!	!	!	!	!	!	!	!	!
.	8D\	.	8D\yy	.	8A/	.	8c/ 8e	8f#X/	.	.	2r;>	.	2r;>	.	2r;>	2r;>	2ryy	.	2r;>	.	12d/L)	2r;>	.	2r;>	.	2r;>	2r;>yy	.	2r;>	.	2r;>	2r;>	.
!	!	!	!	!	!	!	!	!	!	!	!	!	!	!	!	!	!	!	!	!	!LO:TX:a:t=rall.	!	!	!	!	!	!	!	!	!	!	!	!
.	.	.	.	.	.	.	.	.	.	.	.	.	.	.	.	.	.	.	.	.	12ee\	.	.	.	.	.	.	.	.	.	.	.	.
.	8r	.	8ryy	.	8r	.	8r	8r	.	.	.	.	.	.	.	.	.	.	.	.	.	.	.	.	.	.	.	.	.	.	.	.	.
.	.	.	.	.	.	.	.	.	.	.	.	.	.	.	.	.	.	.	.	.	12dd\J	.	.	.	.	.	.	.	.	.	.	.	.
.	4r;>	.	4r;>yy	.	4r;>	.	4r;>	4r;>	.	.	.	.	.	.	.	.	.	.	.	.	12cc/L	.	.	.	.	.	.	.	.	.	.	.	.
.	.	.	.	.	.	.	.	.	.	.	.	.	.	.	.	.	.	.	.	.	12e/	.	.	.	.	.	.	.	.	.	.	.	.
.	.	.	.	.	.	.	.	.	.	.	.	.	.	.	.	.	.	.	.	.	12f#/J	.	.	.	.	.	.	.	.	.	.	.	.
*	*	*	*	*	*	*	*	*	*	*	*	*	*	*	*	*v	*v	*	*	*	*	*	*	*	*	*v	*v	*	*	*	*	*	*
==	==	==	==	==	==	==	==	==	==	==	==	==	==	==	==	==	==	==	==	==	==	==	==	==	==	==	==	==	==	==	==
*-	*-	*-	*-	*-	*-	*-	*-	*-	*-	*-	*-	*-	*-	*-	*-	*-	*-	*-	*-	*-	*-	*-	*-	*-	*-	*-	*-	*-	*-	*-	*-
!!!system-decoration: {(s1,s2)}s3,s4,s5,s6{(s7,s8)}{(g1)}(s11){(s12,s13)}{(g2)}(s16){(s17,s18)}(s19)
!!!RDF**kern: < = below
!!!RDF**kern: > = above
!!!RDF**kern: | = vertical stroke
!!!ENC: Marta Chmielewska
!!!END: 2021-06-17
!!!ENC: Krzysztof Stępień
!!!END: 2021-06-09
!!!YEC: Copyright 2022 Narodowy Instytut Fryderyka Chopina (https://polishscores.org)
!!!YEM: License CC-BY-4.0 (https://creativecommons.org/licenses/by/4.0)
